!!!!SEGMENT: pl-cz--iii-689--007_volckmer-augustin--stabat-mater-daj-niech-rany.krn
!!!cenid: 17xx:1226
!!!COM: Volckmer, Augustin
!!!COM-rismID:
!!!CDT: 1755-~1820
!!!CNT:
!!!OPR: Stabat Mater
!!!OTL: Daj niech rany
!!!OMV: 007
!!!PDT:
!!!AGN: Sacred
!!!SMS-siglum: PL-CZ
!!!SMS-shelfmark: III-689
!!!SMS-shelfwork: 001-007 M
!!!SMS-variant:
!!!SMS-altvar:
!!!NIFC-rismSourceID: 300001407
!!!NIFC-islandoraID: pl-cz:40317
!!!URL-pdf-islandora: https://repozytorium.nifc.pl/islandora/object/pl-cz%3A40317/datastream/PDF/view
!!!URL-scan:
!!!ONB-nifc: UWAGA: części Stabat Mater: Stała Matka Boleściwa, O jak smutna i strapiona,
!!!AIN: 1 alto 1 bass 2 cor 1 fagot 2 flt 2 oboe 1 organ 1 soprn 1 tenor 1 viola 2 violn
!!!key: E-
**kern	**dynam	**kern	**dynam	**kern	**dynam	**kern	**dynam	**kern	**text	**kern	**text	**kern	**kern	**kern	**dynam	**kern	**dynam	**kern	**dynam	**kern	**dynam	**kern	**dynam	**kern	**kern
*	*	*group4	*	*group4	*	*group4	*	*group3	*	*group3	*	*group3	*group3	*group2	*	*group2	*	*group1	*	*group1	*	*group1	*	*group1	*group1
*part15	*	*part14	*part14	*part13	*part13	*part12	*part12	*part11	*part11	*part10	*part10	*part9	*part8	*part7	*	*part6	*	*part5	*	*part4	*	*part3	*	*part2	*part1
*staff15	*	*staff14	*	*staff13	*	*staff12	*	*staff11	*staff11	*staff10	*staff10	*staff9	*staff8	*staff7	*	*staff6	*	*staff5	*	*staff4	*	*staff3	*	*staff2	*staff1
*I"Fundamento !	*	*I"Alto Viola Oblg per expreſsivo.	*	*I"Violino Secundo.	*	*I"Violino Primo .	*	*I"Baſso.	*	*I"Tenore.	*	*I"Alto.	*I"Canto.	*I"Cors de Caſse Secondo in Dis.	*	*I"Cors de Caſse Primo in Dis.	*	*I"Fagotto	*	*I"Haubois Secunda.	*	*I"Haubois Primo	*	*I"Flauto Secondo.	*I"Flauto Primo.
*I'fund	*	*I'a-vla	*	*I'vl 2	*	*I'vl 1	*	*I'B	*	*I'T	*	*I'A	*I'S	*I'cor 2	*	*I'cor 1	*	*I'fg	*	*I'ob 2	*	*I'ob 1	*	*I'fl 2	*I'fl 1
*Iorgan	*	*Iviola	*	*Ivioln	*	*Ivioln	*	*Ibass	*	*Itenor	*	*Ialto	*Isoprn	*Icor	*	*Icor	*	*Ifagot	*	*Ioboe	*	*Ioboe	*	*Iflt	*Iflt
*ICklav	*	*ICstr	*	*ICstr	*	*ICstr	*	*ICvox	*	*ICvox	*	*ICvox	*ICvox	*ICbras	*	*ICbras	*	*ICww	*	*ICww	*	*ICww	*	*ICww	*ICww
*IGcont	*	*	*	*	*	*	*	*IGcoro	*	*IGcoro	*	*IGcoro	*IGcoro	*	*	*	*	*	*	*	*	*	*	*	*
*clefF4	*	*clefC3	*	*clefG2	*	*clefG2	*	*clefF4	*	*clefC4	*	*clefC3	*clefC1	*clefG2	*	*clefG2	*	*clefF4	*	*clefG2	*	*clefG2	*	*clefG2	*clefG2
*	*	*	*	*	*	*	*	*	*	*	*	*	*	*ITrd5c9	*	*ITrd5c9	*	*	*	*	*	*	*	*	*
*k[b-e-a-]	*	*k[b-e-a-]	*	*k[b-e-a-]	*	*k[b-e-a-]	*	*k[b-e-a-]	*	*k[b-e-a-]	*	*k[b-e-a-]	*k[b-e-a-]	*k[b-e-a-]	*	*k[b-e-a-]	*	*k[b-e-a-]	*	*k[b-e-a-]	*	*k[b-e-a-]	*	*k[b-e-a-]	*k[b-e-a-]
*E-:	*	*E-:	*	*E-:	*	*E-:	*	*E-:	*	*E-:	*	*E-:	*E-:	*E-:	*	*E-:	*	*E-:	*	*E-:	*	*E-:	*	*E-:	*E-:
*M3/4	*	*M3/4	*	*M3/4	*	*M3/4	*	*M3/4	*	*M3/4	*	*M3/4	*M3/4	*M3/4	*	*M3/4	*	*M3/4	*	*M3/4	*	*M3/4	*	*M3/4	*M3/4
=1	=1	=1	=1	=1	=1	=1	=1	=1	=1	=1	=1	=1	=1	=1	=1	=1	=1	=1	=1	=1	=1	=1	=1	=1	=1
!	!	!	!	!	!	!	!	!	!	!LO:TX:a:t=39	!	!	!	!	!	!	!	!	!	!	!	!	!	!	!
!LO:TX:b:i:t=Dai niech rany cięzkie nosze	!	!	!	!	!	!	!	!LO:TX:t=P:problem:kolejność znaków A- BB- E-	!	!LO:TX:t=P:problem:kolejność znaków e- A- B-	!	!	!LO:TX:b:t=Volti Citto Tutti.	!	!	!	!	!	!	!	!	!	!	!	!
!LO:TX:a:t=Alle&colon;mod&colon;	!	!	!	!	!	!LO:TX:a:t=Aria	!	!LO:TX:b:t=Aria. IV	!	!LO:TX:a:t=Aria IV	!	!LO:TX:a:t=No 6.	!LO:TX:a:t=Rec&colon; et Aria Tacet. attaca	!	!	!LO:TX:a:t=in Dis	!	!LO:TX:a:t=Aria Allo Moderato	!	!	!	!LO:TX:a:i:t=allo moderato	!	!LO:TX:a:t=Recitativo|Aria et Adagio Tacent. #	!LO:TX:a:t=No 6.
!LO:TX:a:t=Aria.	!	!LO:TX:a:t=allo Moderato	!	!LO:TX:a:t=Aria Allo Moderato	!	!LO:TX:a:t=Allo moderato.	!LO:DY:a	!LO:TX:a:t=Allo Moderato	!	!LO:TX:a:t=Allo Moderato	!	!LO:TX:a:t=Recitativo Et Aria IVta Tacet	!LO:TX:a:t=No 6.	!LO:TX:a:t=in Dis	!	!LO:TX:a:t=Aria 4	!	!LO:TX:t=P:problem:kolejność znaków E- BB- A-	!	!LO:TX:a:t=allo molto	!	!LO:TX:a:t=Aria IVte	!	!LO:TX:a:t=No 6.	!LO:TX:a:t=Recitativo # et Aria IV. # et Adagio Tacet. #
4E-\	.	4e-\	.	4G/	.	4e-/	f	0.r	.	0.r	.	2.ryy	2.ryy	4E-/	.	4B-/	f	4E-\	.	4g/	.	4ee-\	.	2.ryy	2.ryy
4G\	.	4g\	.	4g/	.	8b-/L	.	.	.	.	.	.	.	4G/	.	4r	.	(8B-\L	.	4r	.	4r	.	.	.
.	.	.	.	.	.	(8g/	.	.	.	.	.	.	.	.	.	.	.	8G\)	.	.	.	.	.	.	.
4B-\	.	4b-\	.	8f/L	.	8a-/)	.	.	.	.	.	.	.	4B-/	.	4B-/	.	(8A-\	.	4r	.	4r	.	.	.
.	.	.	.	8A-X/J	.	8f/J	.	.	.	.	.	.	.	.	.	.	.	8F\J)	.	.	.	.	.	.	.
!	!	!	!	!	!	!	!	!	!	!	!	!	!	!	!	!	!	!	!	!LO:LB:g=original	!	!	!	!	!
=2	=2	=2	=2	=2	=2	=2	=2	=2	=2	=2	=2	=2	=2	=2	=2	=2	=2	=2	=2	=2	=2	=2	=2	=2	=2
!	!	!	!	!	!	!	!	!	!	!	!	!	!	!LO:TX:a:t=Moderato	!	!	!	!	!	!	!	!	!	!	!
4E-\	.	4e-\	.	4e-/ 4G/	.	4e-/	f	.	.	.	.	2.ryy	2.ryy	4E-/	.	4B-/	.	4E-\	.	4g/	.	4ee-\	.	2.ryy	2.ryy
4G\	.	4g\	.	4g/	.	8b-/L	.	.	.	.	.	.	.	4G/	.	4r	.	(8B-\L	.	4r	.	4r	.	.	.
.	.	.	.	.	.	(8g/	.	.	.	.	.	.	.	.	.	.	.	8G\)	.	.	.	.	.	.	.
!	!	!LO:TX:a:t=Aria	!	!	!	!	!	!	!	!	!	!	!	!	!	!	!	!	!	!	!	!	!	!	!
4B-\	.	4b-\	.	8f/L	.	8a-/)	.	.	.	.	.	.	.	4B-/	.	4B-/	.	(8A-\	.	4r	.	4r	.	.	.
.	.	.	.	8A-/J	.	8f/J	.	.	.	.	.	.	.	.	.	.	.	8F\J)	.	.	.	.	.	.	.
!LO:LB:g=original	!	!	!	!	!	!	!	!	!	!	!	!	!	!	!	!	!	!	!	!	!	!	!	!	!
=3	=3	=3	=3	=3	=3	=3	=3	=3	=3	=3	=3	=3	=3	=3	=3	=3	=3	=3	=3	=3	=3	=3	=3	=3	=3
*	*	*2\right	*	*	*	*	*	*	*	*	*	*	*	*	*	*	*	*	*	*	*	*	*	*	*
4E-\	.	2e-\	.	4G/	.	4e-/	.	.	.	.	.	2.ryy	2.ryy	4E-/	.	4B-/	.	(4E-\	.	4r	.	4r	.	2.ryy	2.ryy
4r	.	.	.	4cc\	.	4ee-\	.	.	.	.	.	.	.	4r	.	4r	.	4e-\	.	4cc\	.	4ee-\	.	.	.
!	!	!	!	!	!	!	!	!	!	!	!	!	!	!LO:TX:a:t=Allo Moderato Aria	!	!	!	!	!	!	!	!	!	!	!
4A-\	.	4e-\	.	8b-\L	.	(8dd\L	.	.	.	.	.	.	.	4r	.	4r	.	8d\L	.	8b-\L	.	8dd\L	.	.	.
.	.	.	.	8a-\J	.	8cc\J)	.	.	.	.	.	.	.	.	.	.	.	8c\J)	.	8a-\J	.	8cc\J	.	.	.
!	!	!	!	!	!	!	!	!	!	!	!	!	!	!	!	!	!	!	!	!	!	!LO:LB:g=original	!	!	!
=4	=4	=4	=4	=4	=4	=4	=4	=4	=4	=4	=4	=4	=4	=4	=4	=4	=4	=4	=4	=4	=4	=4	=4	=4	=4
4E-\	.	4e-\	.	4a-/	.	4cc\	.	.	.	.	.	2.ryy	2.ryy	4E-/	.	4e-\	.	4c\	.	4a-/	.	4cc\	.	2.ryy	2.ryy
.	.	.	.	.	.	16qqb-/LL	.	.	.	.	.	.	.	.	.	.	.	.	.	.	.	.	.	.	.
.	.	.	.	.	.	16qqcc/JJ	.	.	.	.	.	.	.	.	.	.	.	.	.	.	.	.	.	.	.
!	!	!	!	!	!	!	!	!	!	!	!	!	!	!	!	!	!	!LO:TX:a:t=b	!	!	!	!	!	!	!
4EE-/	.	4e-\	.	4g/	.	4b-\	.	.	.	.	.	.	.	4E-/	.	4B-/	.	4B-\	.	4g/	.	4b-\	.	.	.
4r	.	4r	.	4r	.	4r	.	.	.	.	.	.	.	4r	.	4r	.	4ryy	.	4r	.	4r	.	.	.
!	!	!	!	!	!	!	!	!	!	!	!	!	!	!	!	!	!	!LO:LB:g=original	!	!	!	!	!	!	!
=5	=5	=5	=5	=5	=5	=5	=5	=5	=5	=5	=5	=5	=5	=5	=5	=5	=5	=5	=5	=5	=5	=5	=5	=5	=5
4r	.	4r	.	4f/	.	4a-/	p	0.r	.	0.r	.	2.ryy	2.ryy	4r	.	4r	.	4A-\	.	4r	.	4r	.	2.ryy	2.ryy
4B-\	.	4a-\	.	4d/	.	4f/	.	.	.	.	.	.	.	4f\	.	4a-\	p	4F\	.	4a-/	.	4ff\	.	.	.
4BB-/	.	4f\	.	4r	.	4r	.	.	.	.	.	.	.	4B-/	.	4f\	.	4r	.	4f/	.	4dd\	.	.	.
=6	=6	=6	=6	=6	=6	=6	=6	=6	=6	=6	=6	=6	=6	=6	=6	=6	=6	=6	=6	=6	=6	=6	=6	=6	=6
4r	.	4r	.	4g/	.	4b-/	.	.	.	.	.	2.ryy	2.ryy	4r	.	4r	.	4B-\	.	4r	.	4r	.	2.ryy	2.ryy
4E-\	.	4b-\	.	4e-/	.	4g/	.	.	.	.	.	.	.	4G/	.	4B-/	.	4G\	.	4b-/	.	4gg\	.	.	.
4EE-/	.	4g\	.	4r	.	4r	.	.	.	.	.	.	.	4E-/	.	4G/	.	4r	.	4g/	.	4ee-\	.	.	.
=7	=7	=7	=7	=7	=7	=7	=7	=7	=7	=7	=7	=7	=7	=7	=7	=7	=7	=7	=7	=7	=7	=7	=7	=7	=7
!	!	!	!	!	!	!	!	!	!	!	!	!	!	!	!	!	!	!	!	!LO:TX:a:t=1	!	!	!	!	!
.	.	.	.	.	.	16qqb-/	.	.	.	.	.	.	.	.	.	.	.	16qqB-/	.	.	.	.	.	.	.
4A-\	.	4cc\	.	8.c/L	.	(8a-/L	.	.	.	.	.	2.ryy	2.ryy	4r	.	4r	.	8A-\L	.	2.r	.	2.r	.	2.ryy	2.ryy
.	.	.	.	.	.	16g/L	.	.	.	.	.	.	.	.	.	.	.	16G\L	.	.	.	.	.	.	.
.	.	.	.	32B-/LL	.	16f/JJ)	.	.	.	.	.	.	.	.	.	.	.	16F\JJ	.	.	.	.	.	.	.
.	.	.	.	32A-/JJJ	.	.	.	.	.	.	.	.	.	.	.	.	.	.	.	.	.	.	.	.	.
4B-\	.	4b-\	.	4G/	.	4e-/	.	.	.	.	.	.	.	4e-\	.	4g\	.	4E-\	.	.	.	.	.	.	.
4BB-/	.	4b-\	.	4A-/	.	4d/	.	.	.	.	.	.	.	4B-/	.	4f\	.	4D\	.	.	.	.	.	.	.
=8	=8	=8	=8	=8	=8	=8	=8	=8	=8	=8	=8	=8	=8	=8	=8	=8	=8	=8	=8	=8	=8	=8	=8	=8	=8
!	!	!	!	!	!LO:DY:a:rj	!	!	!	!	!	!	!	!	!	!	!	!	!	!	!	!	!	!	!	!
4r	.	4r	.	4f/	p	4a-/	p	.	.	.	.	2.ryy	2.ryy	4r	p	4r	.	4A-\	.	4r	.	4r	.	2.ryy	2.ryy
!	!	!	!	!	!	!	!	!	!	!	!	!	!	!	!	!	!	!	!	!	!LO:DY:t=p&colon;	!	!	!	!
4B-\	.	4a-\	.	4d/	.	4f/	.	.	.	.	.	.	.	4f\	.	4a-\	.	4F\	.	4a-/	p	4ff\	.	.	.
4BB-/	.	4f\	.	4r	.	4r	.	.	.	.	.	.	.	4B-/	.	4f\	.	4r	.	4f/	.	4dd\	.	.	.
!	!	!LO:LB:g=original	!	!LO:LB:g=original	!	!LO:LB:g=original	!	!	!	!	!	!	!	!	!	!	!	!	!	!	!	!	!	!	!
=9	=9	=9	=9	=9	=9	=9	=9	=9	=9	=9	=9	=9	=9	=9	=9	=9	=9	=9	=9	=9	=9	=9	=9	=9	=9
4E-\	.	4r	.	4g/	.	4b-/	.	0.r	.	0.r	.	2.ryy	2.ryy	4r	.	4r	.	4B-\	.	4r	.	4r	.	2.ryy	2.ryy
4EE-/	.	4b-\	.	4e-/	.	4g/	.	.	.	.	.	.	.	4G/	.	4B-/	.	4G\	.	4b-/	.	4gg\	.	.	.
4r	.	4g\	.	4r	.	8r	f	.	.	.	.	.	.	4E-/	.	4G/	.	4r	.	4g/	.	4ee-\	.	.	.
.	.	.	.	.	.	(16dd\LL	.	.	.	.	.	.	.	.	.	.	.	.	.	.	.	.	.	.	.
.	.	.	.	.	.	16ee-\JJ)	.	.	.	.	.	.	.	.	.	.	.	.	.	.	.	.	.	.	.
!	!	!	!	!	!	!	!	!	!	!	!	!	!	!	!	!LO:LB:g=original	!	!	!	!	!	!	!	!	!
=10	=10	=10	=10	=10	=10	=10	=10	=10	=10	=10	=10	=10	=10	=10	=10	=10	=10	=10	=10	=10	=10	=10	=10	=10	=10
4r	.	4r	.	4r	.	4B-/	.	.	.	.	.	2.ryy	2.ryy	4r	.	4r	.	4BB-/	.	4r	.	4r	.	2.ryy	2.ryy
4D\	.	4b-\	.	4f/	.	4f/	.	.	.	.	.	.	.	4r	.	4r	.	4D/	.	4a-/	.	4ff\	.	.	.
!	!	!	!	!	!	!	!	!	!	!	!	!	!	!	!	!	!	!	!	!	!LO:DY:t=for&colon;	!	!	!	!
4E-\	.	4b-\	.	4e-/	.	4e-/	.	.	.	.	.	.	.	4e-\	f	4g\	f	4E-/	.	4g/	f	4ee-\	.	.	.
=11	=11	=11	=11	=11	=11	=11	=11	=11	=11	=11	=11	=11	=11	=11	=11	=11	=11	=11	=11	=11	=11	=11	=11	=11	=11
4B-\	.	4b-\	.	4e-/	.	4g/	.	.	.	.	.	2.ryy	2.ryy	4e-\	.	4g\	.	4BB-/	.	4g/	.	4ee-\	.	2.ryy	2.ryy
4BB-/	.	4b-\	.	4d/	.	4f/	.	.	.	.	.	.	.	4B-/	.	4f\	.	4B-\	.	4f/	.	4dd\	.	.	.
4r	.	4r	.	4r	.	4r	.	.	.	.	.	.	.	4r	.	4r	.	4r	.	4r	.	4r	.	.	.
=12	=12	=12	=12	=12	=12	=12	=12	=12	=12	=12	=12	=12	=12	=12	=12	=12	=12	=12	=12	=12	=12	=12	=12	=12	=12
.	.	.	.	.	.	16qqa-/LL	.	.	.	.	.	.	.	.	.	.	.	.	.	.	.	.	.	.	.
.	.	.	.	.	.	16qqcc/JJ	.	.	.	.	.	.	.	.	.	.	.	.	.	8qqqa-/	.	16qqccc/	.	.	.
4BB-/	.	4r	.	4r	.	4b-\	.	.	.	.	.	2.ryy	2.ryy	4r	.	4r	.	4B-\	.	4b-/	.	4bb-\	.	2.ryy	2.ryy
4r	.	4f\	.	4a-/	.	4r	.	.	.	.	.	.	.	4f\	.	4a-\	.	4r	.	4r	.	4r	.	.	.
!	!	!LO:TX:t=P:problem:4\left	!	!	!	!	!	!	!	!	!	!	!	!	!	!	!	!	!	!	!	!	!	!	!
4r	.	4B-/	.	4f/	.	4r	.	.	.	.	.	.	.	4B-/	.	4f\	.	4r	.	4r	.	4r	.	.	.
=13	=13	=13	=13	=13	=13	=13	=13	=13	=13	=13	=13	=13	=13	=13	=13	=13	=13	=13	=13	=13	=13	=13	=13	=13	=13
.	.	.	.	.	.	16qqa-/LL	.	.	.	.	.	.	.	.	.	.	.	.	.	.	.	.	.	.	.
.	.	.	.	.	.	16qqcc/JJ	.	.	.	.	.	.	.	.	.	.	.	.	.	.	.	16qqaa-/	.	.	.
4BB-/	.	4r	.	4r	.	4b-\	.	0.r	.	0.r	.	2.ryy	2.ryy	4r	.	4r	.	4B-\	.	4b-/	.	4bb-\	.	2.ryy	2.ryy
4r	.	4e-\	.	4g/	.	4r	.	.	.	.	.	.	.	4e-\	.	4g\	.	4r	.	4r	.	4r	.	.	.
!	!	!LO:TX:t=P:problem:4\left	!	!	!	!	!	!	!	!	!	!	!	!	!	!	!	!	!	!	!	!	!	!	!
4r	.	4G/	.	4e-/	.	4r	.	.	.	.	.	.	.	4G/	.	4e-\	.	4r	.	4r	.	4r	.	.	.
=14	=14	=14	=14	=14	=14	=14	=14	=14	=14	=14	=14	=14	=14	=14	=14	=14	=14	=14	=14	=14	=14	=14	=14	=14	=14
.	.	.	.	.	.	16qqa-/LL	.	.	.	.	.	.	.	.	.	.	.	.	.	.	.	.	.	.	.
.	.	.	.	.	.	16qqcc/JJ	.	.	.	.	.	.	.	.	.	.	.	.	.	.	.	16qqaa-/	.	.	.
4r	.	4r	.	4r	.	4b-\	.	.	.	.	.	2.ryy	2.ryy	4B-/	.	4f\	.	4r	.	4b-\	.	4bb-\	.	2.ryy	2.ryy
4BB-/	.	4d\	.	4f/	.	4b-\	.	.	.	.	.	.	.	4B-/	.	4f\	.	4B-\	.	4b-\	.	4bb-\	.	.	.
4BB-/	.	4d\	.	4f/	.	4b-\	.	.	.	.	.	.	.	4B-/	.	4f\	.	4B-\	.	4b-\	.	4bb-\	.	.	.
=15	=15	=15	=15	=15	=15	=15	=15	=15	=15	=15	=15	=15	=15	=15	=15	=15	=15	=15	=15	=15	=15	=15	=15	=15	=15
*	*	*	*	*	*	*2\right	*	*	*	*	*	*	*	*	*	*	*	*2\right	*	*2\right	*	*2\right	*	*	*
2BB-/	.	(8d\L	.	8f/L	.	2b-T\	.	.	.	.	.	2.ryy	2.ryy	4B-/	.	8f\L	.	2B-\	.	2b-\	.	2bb-\	.	2.ryy	2.ryy
.	.	8c\	.	(8e-/	.	.	.	.	.	.	.	.	.	.	.	8e-\	.	.	.	.	.	.	.	.	.
.	.	8d\	.	8f/	.	.	.	.	.	.	.	.	.	8B-/L	.	8f\	.	.	.	.	.	.	.	.	.
.	.	8e-\J)	.	8g/J)	.	.	.	.	.	.	.	.	.	8e-/J	.	8g\J	.	.	.	.	.	.	.	.	.
4BB-/	.	4d\	.	4f/	.	4b-\	.	.	.	.	.	.	.	4B-/	.	4f\	.	4B-\	.	4b-\	.	4bb-\	.	.	.
!LO:LB:g=original	!	!	!	!	!	!	!	!	!	!	!	!	!	!LO:LB:g=original	!	!	!	!	!	!	!	!LO:LB:g=original	!	!	!
=16	=16	=16	=16	=16	=16	=16	=16	=16	=16	=16	=16	=16	=16	=16	=16	=16	=16	=16	=16	=16	=16	=16	=16	=16	=16
.	.	.	.	.	.	16qqa-/LL	.	.	.	.	.	.	.	.	.	.	.	.	.	.	.	.	.	.	.
.	.	.	.	.	.	16qqcc/JJ	.	.	.	.	.	.	.	.	.	.	.	.	.	.	.	16qqaa-/	.	.	.
!	!	!	!	!	!	!	!LO:DY:rj	!	!	!	!	!	!	!	!	!	!	!	!	!	!LO:DY:t=p&colon;	!	!	!	!
4BB-/	.	4r	.	4r	.	4b-\	p	.	.	.	.	2.ryy	2.ryy	4r	.	4r	.	4B-\	.	4b-\	p	4bb-\	.	2.ryy	2.ryy
4r	.	4f\	.	4a-/	.	4r	.	.	.	.	.	.	.	4f\	.	4a-\	p	4r	.	4r	.	4r	.	.	.
!	!	!LO:TX:t=P:problem:4\left	!	!	!	!	!	!	!	!	!	!	!	!	!	!	!	!	!	!	!	!	!	!	!
4r	.	4B-/	.	4f/	.	4r	.	.	.	.	.	.	.	4B-/	.	4f\	.	4r	.	4r	.	4r	.	.	.
=17	=17	=17	=17	=17	=17	=17	=17	=17	=17	=17	=17	=17	=17	=17	=17	=17	=17	=17	=17	=17	=17	=17	=17	=17	=17
.	.	.	.	.	.	16qqa-/LL	.	.	.	.	.	.	.	.	.	.	.	.	.	.	.	.	.	.	.
!	!	!	!	!	!	!	!	!	!	!	!	!	!	!	!	!	!	!	!	!	!	!LO:TX:t=P:problem:t. 17 - repetycja	!	!	!
.	.	.	.	.	.	16qqcc/JJ	.	.	.	.	.	.	.	.	.	.	.	.	.	.	.	16qqaa-/yy	.	.	.
4BB-/	.	4r	.	4r	.	4b-\	.	0.r	.	0.r	.	2.ryy	2.ryy	4r	.	4r	.	4B-\	.	4b-\	.	4bb-\yy	.	2.ryy	2.ryy
!	!	!	!LO:DY:t=for&colon;	!	!	!	!	!	!	!	!	!	!	!	!	!	!	!	!	!	!	!	!	!	!
4r	.	4e-\	f	4g/	.	4r	f	.	.	.	.	.	.	4e-\	.	4g\	.	4r	.	4r	.	4ryy	.	.	.
4E-\	.	4b-\	.	4g/	.	4ee-\	.	.	.	.	.	.	.	4G/	.	4e-\	.	4E-\	.	4r	.	4ryy	.	.	.
!	!	!	!	!	!	!LO:LB:g=original	!	!	!	!	!	!	!	!	!	!	!	!	!	!	!	!	!	!	!
=18	=18	=18	=18	=18	=18	=18	=18	=18	=18	=18	=18	=18	=18	=18	=18	=18	=18	=18	=18	=18	=18	=18	=18	=18	=18
.	.	.	.	.	.	16qqdd/	.	.	.	.	.	.	.	.	.	.	.	.	.	.	.	.	.	.	.
4A-\	.	4cc\	.	8a-/L	.	8cc\L	.	.	.	.	.	2.ryy	2.ryy	4r	.	4r	.	4A-\	.	4r	.	4r	.	2.ryy	2.ryy
.	.	.	.	(16g/L	.	(16b-\L	.	.	.	.	.	.	.	.	.	.	.	.	.	.	.	.	.	.	.
.	.	.	.	16f/JJ)	.	16a-\JJ)	.	.	.	.	.	.	.	.	.	.	.	.	.	.	.	.	.	.	.
4B-\	.	4b-\	.	4f/	.	4g/	.	.	.	.	.	.	.	4e-\	.	4g\	.	4B-\	.	4ee-\	.	4gg\	.	.	.
4BB-/	.	4b-\	.	4d/	.	4f/	.	.	.	.	.	.	.	4B-/	.	4f\	.	4BB-/	.	4dd\	.	4ff\	.	.	.
!	!	!	!	!	!	!	!	!	!	!	!	!	!	!	!	!	!	!LO:LB:g=original	!	!	!	!	!	!	!
=19	=19	=19	=19	=19	=19	=19	=19	=19	=19	=19	=19	=19	=19	=19	=19	=19	=19	=19	=19	=19	=19	=19	=19	=19	=19
!	!	!	!	!	!	!	!	!	!	!	!	!	!	!LO:TX:a:t=2	!	!LO:TX:a:t=2	!	!	!	!LO:TX:a:t=2	!	!LO:TX:a:t=2	!	!	!
4r	.	(8.cc\L	.	8.cc\L	.	8.cc\L	.	.	.	.	.	2.ryy	2.ryy	1.r	.	1.r	.	8.c\L	.	1.r	.	1.r	.	2.ryy	2.ryy
.	.	16b-\Jk	.	16b-\Jk	.	16b-\Jk	.	.	.	.	.	.	.	.	.	.	.	16B-\Jk	.	.	.	.	.	.	.
4r	.	16a-\LL	.	(16a-/LL	.	16a-/LL	.	.	.	.	.	.	.	.	.	.	.	16A-\LL	.	.	.	.	.	.	.
.	.	16g\	.	16g/	.	16g/	.	.	.	.	.	.	.	.	.	.	.	16G\	.	.	.	.	.	.	.
.	.	16f\	.	16f/)	.	16f/	.	.	.	.	.	.	.	.	.	.	.	16F\	.	.	.	.	.	.	.
.	.	16e-\JJ	.	16e-/JJ	.	16e-/JJ	.	.	.	.	.	.	.	.	.	.	.	16E-\JJ	.	.	.	.	.	.	.
4BB-/	.	16d\LL	.	16d/LL	.	16d/LL	.	.	.	.	.	.	.	.	.	.	.	16D/LL	.	.	.	.	.	.	.
.	.	16c\	.	16c/	.	16c/	.	.	.	.	.	.	.	.	.	.	.	16C/	.	.	.	.	.	.	.
.	.	16B-\	.	16B-/	.	16B-/	.	.	.	.	.	.	.	.	.	.	.	16BB-/	.	.	.	.	.	.	.
.	.	16A-\JJ)	.	16A-/JJ	.	16A-/JJ	.	.	.	.	.	.	.	.	.	.	.	16AA-/JJ	.	.	.	.	.	.	.
!	!	!	!	!LO:LB:g=original	!	!	!	!	!	!	!	!	!	!	!	!	!	!	!	!	!	!	!	!	!
=20	=20	=20	=20	=20	=20	=20	=20	=20	=20	=20	=20	=20	=20	=20	=20	=20	=20	=20	=20	=20	=20	=20	=20	=20	=20
*2\right	*	*	*	*	*	*	*	*	*	*	*	*	*	*	*	*	*	*	*	*	*	*	*	*	*
2E-\	.	8G\L	.	8G/L	.	8G/L	.	.	.	.	.	2.ryy	2.ryy	.	.	.	.	8GG/L	.	.	.	.	.	2.ryy	2.ryy
.	.	8B-\	.	8B-/	.	8G/	.	.	.	.	.	.	.	.	.	.	.	8BB-/J	.	.	.	.	.	.	.
.	.	8e-\	.	8e-/	.	8e-/	.	.	.	.	.	.	.	.	.	.	.	8E-\L	.	.	.	.	.	.	.
.	.	8g\	.	8g/	.	8g/	.	.	.	.	.	.	.	.	.	.	.	8G\	.	.	.	.	.	.	.
4G\	.	8b-\	.	8b-/	.	8b-/	.	.	.	.	.	.	.	.	.	.	.	8B-\	.	.	.	.	.	.	.
.	.	8g\J	.	8ee-/J	.	8ee-/J	.	.	.	.	.	.	.	.	.	.	.	8G\J	.	.	.	.	.	.	.
!	!	!LO:LB:g=original	!	!	!	!	!	!	!	!	!	!	!	!	!	!	!	!	!	!	!	!	!	!	!
=21	=21	=21	=21	=21	=21	=21	=21	=21	=21	=21	=21	=21	=21	=21	=21	=21	=21	=21	=21	=21	=21	=21	=21	=21	=21
4A-\	.	4cc\	.	8a-/L	.	8cc\L	.	1.r	.	0.r	.	2.ryy	2.ryy	4r	.	4r	.	4A-\	.	8cc|\L	.	8aa-\L	.	2.ryy	2.ryy
.	.	.	.	16g/L	.	(16b-\L	.	.	.	.	.	.	.	.	.	.	.	.	.	(16b-\L	.	16gg\L	.	.	.
.	.	.	.	16f/JJ	.	16a-\JJ)	.	.	.	.	.	.	.	.	.	.	.	.	.	16a-\JJ)	.	16ff\JJ	.	.	.
4B-\	.	4b-\	.	4e-/	.	4g/	.	.	.	.	.	.	.	4e-\	.	4g\	.	4B-\	.	4g/	.	4ee-\	.	.	.
4BB-/	.	4b-\	.	4A-/	.	4f/	.	.	.	.	.	.	.	4B-/	.	4f\	.	4BB-/	.	4f/	.	4dd\	.	.	.
=22	=22	=22	=22	=22	=22	=22	=22	=22	=22	=22	=22	=22	=22	=22	=22	=22	=22	=22	=22	=22	=22	=22	=22	=22	=22
*	*	*2\left	*	*	*	*	*	*	*	*	*	*	*	*	*	*2\right	*	*	*	*	*	*	*	*	*
2E-\	.	2b-\	.	2A-/	.	2f/	.	.	.	.	.	2.ryy	2.ryy	2B-/	.	2f\	.	2E-\	.	2f/	.	2dd\	.	2.ryy	2.ryy
4E-\	.	4b-\	.	4G/	.	4f/	.	.	.	.	.	.	.	4E-/	.	4e-\	.	4E-\	.	4g/	.	4ee-\	.	.	.
=23	=23	=23	=23	=23	=23	=23	=23	=23	=23	=23	=23	=23	=23	=23	=23	=23	=23	=23	=23	=23	=23	=23	=23	=23	=23
!	!	!	!LO:DY:rj:t=p&colon;	!	!	!	!LO:DY:a	!	!	!	!	!	!	!LO:TX:a:t=4	!	!LO:TX:a:t=4	!	!	!	!LO:TX:a:t=4.	!	!LO:TX:a:t=4.	!	!	!
4E-\	.	4e-\	p	4G/	.	4f/	p	4E-\	Day	.	.	2.ryy	2.ryy	0.r	.	0.r	.	4E-\	.	0.r	.	0.r	.	2.ryy	2.ryy
4G\	.	4g\	.	8g/L	.	8b-/L	.	(8B-\L	niech	.	.	.	.	.	.	.	.	4G\	.	.	.	.	.	.	.
.	.	.	.	8e-/	.	(8g/	.	8G\J)	.	.	.	.	.	.	.	.	.	.	.	.	.	.	.	.	.
4B-\	.	4b-\	.	8f/	.	8a-/	.	8A-\L	.	.	.	.	.	.	.	.	.	4B-\	.	.	.	.	.	.	.
.	.	.	.	8A-/J	.	8f/J)	.	8F\J	.	.	.	.	.	.	.	.	.	.	.	.	.	.	.	.	.
=24	=24	=24	=24	=24	=24	=24	=24	=24	=24	=24	=24	=24	=24	=24	=24	=24	=24	=24	=24	=24	=24	=24	=24	=24	=24
4E-\	.	4e-\	.	4G/	.	4e-/	.	4E-\	ra-	.	.	2.ryy	2.ryy	.	.	.	.	4E-\	.	.	.	.	.	2.ryy	2.ryy
4G\	.	4g\	.	8g/L	.	8b-/L	.	(8B-\L	.	.	.	.	.	.	.	.	.	4G\	.	.	.	.	.	.	.
.	.	.	.	8e-/	.	(8g/	.	8G\J)	.	.	.	.	.	.	.	.	.	.	.	.	.	.	.	.	.
4B-\	.	4b-\	.	8f/	.	8a-/	.	(8A-\L	.	.	.	.	.	.	.	.	.	4B-\	.	.	.	.	.	.	.
.	.	.	.	8B-/J	.	8f/J)	.	8F\J)	.	.	.	.	.	.	.	.	.	.	.	.	.	.	.	.	.
=25	=25	=25	=25	=25	=25	=25	=25	=25	=25	=25	=25	=25	=25	=25	=25	=25	=25	=25	=25	=25	=25	=25	=25	=25	=25
*	*	*2\right	*	*	*	*	*	*	*	*	*	*	*	*	*	*	*	*	*	*	*	*	*	*	*
4E-\	.	2e-\	.	4A-/	.	(4e-/	.	(4E-\	-ny	0.r	.	2.ryy	2.ryy	.	.	.	.	4E-\	.	.	.	.	.	2.ryy	2.ryy
4r	.	.	.	4cc\	.	4ee-\)	.	4e-\)	cię-	.	.	.	.	.	.	.	.	4r	.	.	.	.	.	.	.
4A-\	.	4e-\	.	8b-\L	.	8dd'\L	.	8d\L	-zkie	.	.	.	.	.	.	.	.	4A-\	.	.	.	.	.	.	.
.	.	.	.	8a-\J	.	8cc'\J	.	8c\J	.	.	.	.	.	.	.	.	.	.	.	.	.	.	.	.	.
=26	=26	=26	=26	=26	=26	=26	=26	=26	=26	=26	=26	=26	=26	=26	=26	=26	=26	=26	=26	=26	=26	=26	=26	=26	=26
4E-\	.	4e-\	.	4a-/	.	4cc\	.	4c\	no-	.	.	2.ryy	2.ryy	.	.	.	.	4E-\	.	.	.	.	.	2.ryy	2.ryy
4EE-/	.	4e-\	.	4g/	.	4b-\	.	4B-\	-sze	.	.	.	.	.	.	.	.	4EE-/	.	.	.	.	.	.	.
4r	.	4r	.	4r	.	4r	.	4r	.	.	.	.	.	.	.	.	.	4r	.	.	.	.	.	.	.
!	!	!	!	!	!	!LO:LB:g=original	!	!	!	!	!	!	!	!	!	!	!	!	!	!	!	!	!	!	!
=27	=27	=27	=27	=27	=27	=27	=27	=27	=27	=27	=27	=27	=27	=27	=27	=27	=27	=27	=27	=27	=27	=27	=27	=27	=27
4r	.	4r	.	4f/	.	4a-/	.	4A-\	czu-	.	.	2.ryy	2.ryy	4r	.	4r	.	4r	.	4r	.	4r	.	2.ryy	2.ryy
4B-\	.	4a-\	.	4d/	.	4f/	.	4F\	-ię	.	.	.	.	4f\	.	4a-\	.	4F\	.	4a-/	.	4ff\	.	.	.
4BB-/	.	4f\	.	4r	.	4r	.	4r	.	.	.	.	.	4B-/	.	4f\	.	4BB-/	.	4f/	.	4dd\	.	.	.
=28	=28	=28	=28	=28	=28	=28	=28	=28	=28	=28	=28	=28	=28	=28	=28	=28	=28	=28	=28	=28	=28	=28	=28	=28	=28
4r	.	4r	.	4g/	.	4b-/	.	4B-\	czu-	.	.	2.ryy	2.ryy	4r	.	4r	.	4r	.	4r	.	4r	.	2.ryy	2.ryy
4E-\	.	4b-\	.	4e-/	.	4g/	.	4G\	-ię	.	.	.	.	4G/	.	4B-/	.	4G\	.	4b-/	.	4gg\	.	.	.
4EE-/	.	4g\	.	4r	.	4r	.	4r	.	.	.	.	.	4E-/	.	4G/	.	4E-\	.	4g/	.	4ee-\	.	.	.
!LO:LB:g=original	!	!	!	!	!	!	!	!	!	!	!	!	!	!	!	!	!	!	!	!	!	!	!	!	!
=29	=29	=29	=29	=29	=29	=29	=29	=29	=29	=29	=29	=29	=29	=29	=29	=29	=29	=29	=29	=29	=29	=29	=29	=29	=29
!	!	!	!	!	!	!	!	!	!	!	!	!	!	!LO:TX:a:t=1	!	!LO:TX:a:t=1	!	!	!	!LO:TX:a:t=1.	!	!	!	!	!
.	.	.	.	.	.	16qqb-/	.	16qqB-/	.	.	.	.	.	.	.	.	.	.	.	.	.	.	.	.	.
4A-\	.	4cc\	.	8c/L	.	8a-/L	.	8A-\	Kie-	0.r	.	2.ryy	2.ryy	2.r	.	2.r	.	4A-\	.	2.r	.	2.r	.	2.ryy	2.ryy
.	.	.	.	(16B-/L	.	16g/L	.	16G\LL	.	.	.	.	.	.	.	.	.	.	.	.	.	.	.	.	.
.	.	.	.	16A-/JJ)	.	16f/JJ	.	16F\JJ	.	.	.	.	.	.	.	.	.	.	.	.	.	.	.	.	.
!	!	!	!	!	!	!	!	!LO:LB:g=original	!	!	!	!	!	!	!	!	!	!	!	!	!	!	!	!	!
4B-\	.	4b-\	.	4G/	.	4e-/	.	4E-\	-li-	.	.	.	.	.	.	.	.	4B-\	.	.	.	.	.	.	.
4BB-/	.	4b-\	.	4A-/	.	4d/	.	4D\	-cha	.	.	.	.	.	.	.	.	4BB-/	.	.	.	.	.	.	.
=30	=30	=30	=30	=30	=30	=30	=30	=30	=30	=30	=30	=30	=30	=30	=30	=30	=30	=30	=30	=30	=30	=30	=30	=30	=30
4r	.	4r	.	4f/	.	4a-/	.	4A-\	mę-	.	.	2.ryy	2.ryy	4r	.	4r	.	4r	.	4r	.	4r	.	2.ryy	2.ryy
4B-\	.	4a-\	.	4d/	.	4f/	.	4F\	-ki	.	.	.	.	4f\	.	4a-\	.	4F\	.	4a-/	.	4ff\	.	.	.
4BB-/	.	4f\	.	4r	.	4r	.	4r	.	.	.	.	.	4B-/	.	4f\	.	4D\	.	4f/	.	4dd\	.	.	.
!	!	!	!	!	!	!	!	!	!	!	!	!	!	!	!	!	!	!LO:LB:g=original	!	!	!	!	!	!	!
=31	=31	=31	=31	=31	=31	=31	=31	=31	=31	=31	=31	=31	=31	=31	=31	=31	=31	=31	=31	=31	=31	=31	=31	=31	=31
4r	.	4r	.	4g/	.	4b-/	.	4B-\	mę-	.	.	2.ryy	2.ryy	4r	.	4r	.	4r	.	4r	.	4r	.	2.ryy	2.ryy
4e-\	.	4b-\	.	4e-/	.	4g/	.	4G\	-ki	.	.	.	.	4G/	.	4B-/	.	4G\	.	4b-/	.	4gg\	.	.	.
4E-\	.	4g\	.	4r	.	4r	.	4r	.	.	.	.	.	4E-/	.	4G/	.	4E-\	.	4g/	.	4ee-\	.	.	.
!	!	!	!	!LO:PB:g=original	!	!	!	!	!	!	!	!	!	!	!	!	!	!	!	!	!	!	!	!	!
=32	=32	=32	=32	=32	=32	=32	=32	=32	=32	=32	=32	=32	=32	=32	=32	=32	=32	=32	=32	=32	=32	=32	=32	=32	=32
4A-\	.	4.a-\	.	4f/	.	8cc\L	.	8c\L	Ko-	.	.	2.ryy	2.ryy	4r	.	4r	.	4A-\	.	4r	.	4r	.	2.ryy	2.ryy
.	.	.	.	.	.	8dd\J	.	8d\J	.	.	.	.	.	.	.	.	.	.	.	.	.	.	.	.	.
4F\	.	.	.	4a-/	.	(8dd\L	.	8e-\L	.	.	.	.	.	4r	.	4r	.	4F\	.	4r	.	4r	.	.	.
.	.	8a-\	.	.	.	16cc\L	.	16c\L	.	.	.	.	.	.	.	.	.	.	.	.	.	.	.	.	.
.	.	.	.	.	.	16ee-\JJ)	.	16d\JJ	.	.	.	.	.	.	.	.	.	.	.	.	.	.	.	.	.
!	!	!	!	!	!	!LO:TX:t=P:problem:mixed beam	!	!	!	!	!	!	!	!	!	!	!	!	!	!	!	!	!	!	!
8B-\L	.	4g\	.	8g/L	.	8dd\L	.	8e-\	.	.	.	.	.	4e-\	.	4g\	.	8G\L	.	4g/	.	4ee-\	.	.	.
8E-\J	.	.	.	8e-/J	.	8g/J	.	8G\	.	.	.	.	.	.	.	.	.	8E-\J	.	.	.	.	.	.	.
!	!	!	!	!	!	!	!	!	!	!	!	!	!	!	!	!LO:LB:g=original	!	!	!	!	!	!	!	!	!
=33	=33	=33	=33	=33	=33	=33	=33	=33	=33	=33	=33	=33	=33	=33	=33	=33	=33	=33	=33	=33	=33	=33	=33	=33	=33
4BB-/	.	4b-\	.	4e-/	.	4g/	.	4G\	-sztu-	0.r	.	2.ryy	2.ryy	4e-\	.	4g\	.	4B-\	.	4g/	.	4ee-\	.	2.ryy	2.ryy
4B-\	.	4b-\	.	4d/	.	4f/	.	4F\	-ie	.	.	.	.	4B-/	.	4f\	.	4BB-/	.	4f/	.	4dd\	.	.	.
4r	.	4r	.	4r	.	4r	.	4r	.	.	.	.	.	4r	.	4r	.	4r	.	4r	.	4r	.	.	.
!	!	!	!	!	!	!	!	!	!	!	!	!	!	!	!	!	!	!	!	!LO:LB:g=original	!	!LO:LB:g=original	!	!	!
=34	=34	=34	=34	=34	=34	=34	=34	=34	=34	=34	=34	=34	=34	=34	=34	=34	=34	=34	=34	=34	=34	=34	=34	=34	=34
*	*	*2\left	*	*	*	*	*	*	*	*	*	*	*	*	*	*	*	*	*	*	*	*	*	*	*
!	!	!	!	!	!	!	!	!	!	!	!	!	!	!LO:TX:a:t=29	!	!LO:TX:a:t=29	!	!	!	!LO:TX:a:t=29.	!	!LO:TX:a:t=29	!	!	!
4BB-/	.	2b-\	.	2d/	.	4b-/	.	4B-\	z mi-	.	.	2.ryy	2.ryy	0.r	.	0.r	.	4BB-/	.	0.r	.	0.r	.	2.ryy	2.ryy
4r	.	.	.	.	.	4f/	.	4F\	-ło-	.	.	.	.	.	.	.	.	4r	.	.	.	.	.	.	.
4BB-/	.	4b-\	.	4e-/	.	(8g/L	.	4G\	-sci	.	.	.	.	.	.	.	.	4BB-/	.	.	.	.	.	.	.
.	.	.	.	.	.	16f/L	.	.	.	.	.	.	.	.	.	.	.	.	.	.	.	.	.	.	.
.	.	.	.	.	.	16g/JJ)	.	.	.	.	.	.	.	.	.	.	.	.	.	.	.	.	.	.	.
=35	=35	=35	=35	=35	=35	=35	=35	=35	=35	=35	=35	=35	=35	=35	=35	=35	=35	=35	=35	=35	=35	=35	=35	=35	=35
.	.	.	.	.	.	16qqb-/	.	16qqB-/	.	.	.	.	.	.	.	.	.	.	.	.	.	.	.	.	.
4D\	.	4b-\	.	4f/	.	4a-/	.	4A-\	Sy-	.	.	2.ryy	2.ryy	.	.	.	.	4D\	.	.	.	.	.	2.ryy	2.ryy
.	.	.	.	.	.	.	.	16qqG/LL	.	.	.	.	.	.	.	.	.	.	.	.	.	.	.	.	.
.	.	.	.	.	.	.	.	16qqA-/JJ	.	.	.	.	.	.	.	.	.	.	.	.	.	.	.	.	.
!	!	!LO:TX:t=P:problem:uszkodzone źródło	!	!	!	!	!	!	!	!	!	!	!	!	!	!	!	!	!	!	!	!	!	!	!
(8E-\L	.	4ryy	.	4e-/	.	4g/	.	4G\	-na	.	.	.	.	.	.	.	.	(8E-\L	.	.	.	.	.	.	.
8F\	.	.	.	.	.	.	.	.	.	.	.	.	.	.	.	.	.	8F\	.	.	.	.	.	.	.
8E-\	.	4ryy	.	4r	.	4r	.	4r	.	.	.	.	.	.	.	.	.	8E-\	.	.	.	.	.	.	.
8D\J)	.	.	.	.	.	.	.	.	.	.	.	.	.	.	.	.	.	8D\J)	.	.	.	.	.	.	.
!	!	!LO:LB:g=original	!	!	!	!	!	!	!	!	!	!	!	!	!	!	!	!	!	!	!	!	!	!	!
=36	=36	=36	=36	=36	=36	=36	=36	=36	=36	=36	=36	=36	=36	=36	=36	=36	=36	=36	=36	=36	=36	=36	=36	=36	=36
*	*	*2\right	*	*	*	*	*	*	*	*	*	*	*	*	*	*	*	*	*	*	*	*	*	*	*
4C/	.	2cc\	.	2en/	.	4cc\	.	(4c\	z mi-	.	.	2.ryy	2.ryy	.	.	.	.	4C/	.	.	.	.	.	2.ryy	2.ryy
4r	.	.	.	.	.	4g\	.	8G\L	-ło-	.	.	.	.	.	.	.	.	4r	.	.	.	.	.	.	.
.	.	.	.	.	.	.	.	8B-\J)	.	.	.	.	.	.	.	.	.	.	.	.	.	.	.	.	.
4C/	.	4cc\	.	4f/	.	8an/L	.	8An\L	-sci	.	.	.	.	.	.	.	.	4C/	.	.	.	.	.	.	.
.	.	.	.	.	.	8cc/J	.	8c\J	.	.	.	.	.	.	.	.	.	.	.	.	.	.	.	.	.
!	!	!	!	!	!	!LO:LB:g=original	!	!LO:LB:g=original	!	!	!	!	!	!	!	!	!	!	!	!	!	!	!	!	!
=37	=37	=37	=37	=37	=37	=37	=37	=37	=37	=37	=37	=37	=37	=37	=37	=37	=37	=37	=37	=37	=37	=37	=37	=37	=37
.	.	.	.	.	.	16qqcc/	.	16qqc/	.	.	.	.	.	.	.	.	.	.	.	.	.	.	.	.	.
4En\	.	4cc\	.	4g/	.	4b-/	.	4B-\	Sy-	1.r	.	2.ryy	2.ryy	.	.	.	.	4En\	.	.	.	.	.	2.ryy	2.ryy
4F\	.	4cc\	.	4f/	.	4a-/	.	4A-\	-na	.	.	.	.	.	.	.	.	4F\	.	.	.	.	.	.	.
4r	.	4r	.	4r	.	4r	.	4r	.	.	.	.	.	.	.	.	.	4r	.	.	.	.	.	.	.
=38	=38	=38	=38	=38	=38	=38	=38	=38	=38	=38	=38	=38	=38	=38	=38	=38	=38	=38	=38	=38	=38	=38	=38	=38	=38
4AAn/	.	4r	.	4r	.	4cc\	.	4c\	z mi-	.	.	2.ryy	2.ryy	0.r	.	0.r	.	4AAn/	.	0.r	.	0.r	.	2.ryy	2.ryy
4r	.	4an\	.	4c/	.	4e-/	.	4E-\	-ło-	.	.	.	.	.	.	.	.	4r	.	.	.	.	.	.	.
4AA/	.	4f\	.	4c/	.	4e-/	.	4E-\	-sci	.	.	.	.	.	.	.	.	4AA/	.	.	.	.	.	.	.
!LO:LB:g=original	!	!	!	!	!	!	!	!	!	!	!	!	!	!	!	!	!	!	!	!	!	!	!	!	!
=39	=39	=39	=39	=39	=39	=39	=39	=39	=39	=39	=39	=39	=39	=39	=39	=39	=39	=39	=39	=39	=39	=39	=39	=39	=39
4BB-/	.	4f\	.	8c/L	.	8e-/L	.	8E-\L	Sy-	2.r	.	2.ryy	2.ryy	.	.	.	.	4BB-/	.	.	.	.	.	2.ryy	2.ryy
.	.	.	.	8B-/	.	(8d/	.	8D\	.	.	.	.	.	.	.	.	.	.	.	.	.	.	.	.	.
4r	.	4r	.	8e-/	.	8g/	.	8G\	.	.	.	.	.	.	.	.	.	4r	.	.	.	.	.	.	.
.	.	.	.	8d/J	.	8f/J)	.	8F\J	.	.	.	.	.	.	.	.	.	.	.	.	.	.	.	.	.
4BB-/	.	4f\	.	4d/	.	4f/	.	4E-\	-na	.	.	.	.	.	.	.	.	4BB-/	.	.	.	.	.	.	.
=40	=40	=40	=40	=40	=40	=40	=40	=40	=40	=40	=40	=40	=40	=40	=40	=40	=40	=40	=40	=40	=40	=40	=40	=40	=40
4E-\	.	4f\	.	8b-/L	.	8dd\L	.	8B-\L	twe-	8d\	twe-	2.ryy	2.ryy	.	.	.	.	4D\	.	.	.	.	.	2.ryy	2.ryy
.	.	.	.	8a-/	.	(8cc\	.	8An\	.	8c\	.	.	.	.	.	.	.	.	.	.	.	.	.	.	.
4E-\	.	4r	.	8g/	.	8ee-\	.	8G\	.	8f\L	.	.	.	.	.	.	.	4E-\	.	.	.	.	.	.	.
.	.	.	.	8f/	.	8dd\	.	8F\J	.	8e-\J	.	.	.	.	.	.	.	.	.	.	.	.	.	.	.
4En\	.	4g\	.	8e-/	.	8cc\)	.	8E-\L	.	8d\L	.	.	.	.	.	.	.	4En\	.	.	.	.	.	.	.
.	.	.	.	8d/J	.	8b-\J	.	8D\J	.	8c\J	.	.	.	.	.	.	.	.	.	.	.	.	.	.	.
=41	=41	=41	=41	=41	=41	=41	=41	=41	=41	=41	=41	=41	=41	=41	=41	=41	=41	=41	=41	=41	=41	=41	=41	=41	=41
!	!	!	!	!	!	!	!	!LO:TX:t=P:problem:4\left	!	!	!	!	!	!	!	!	!	!	!	!	!	!	!	!	!
4F\	.	4f\	.	4d/	.	4b-\	.	4D/	.	4B-\	.	2.ryy	2.ryy	.	.	.	.	4F\	.	.	.	.	.	2.ryy	2.ryy
!	!	!	!	!	!	!LO:SIC:v:s=an	!	!LO:TX:t=P:problem:4\left	!	!	!	!	!	!	!	!	!	!	!	!	!	!	!	!	!
4C\	.	4f\	.	4c/	.	4a-\	.	4C/	-go	4An\	-go	.	.	.	.	.	.	4C/	.	.	.	.	.	.	.
4FF/	.	4r	.	4r	.	4r	.	4r	.	4r	.	.	.	.	.	.	.	4FF/	.	.	.	.	.	.	.
!	!	!	!	!LO:LB:g=original	!	!	!	!	!	!	!	!	!	!	!	!	!	!	!	!	!	!	!	!	!
=42	=42	=42	=42	=42	=42	=42	=42	=42	=42	=42	=42	=42	=42	=42	=42	=42	=42	=42	=42	=42	=42	=42	=42	=42	=42
*	*	*	*	*	*	*	*	*2\right	*	*2\right	*	*	*	*	*	*	*	*	*	*	*	*	*	*	*
!	!	!LO:TX:a:t=Re	!	!	!	!	!	!	!	!	!	!	!	!	!	!	!	!	!	!	!	!	!	!	!
!	!	!LO:TX:b:i:t=Dolce	!	!LO:SIC:v:s=2an/	!	!LO:TX:b:i:t=dolce	!LO:DY:a	!	!	!	!	!	!	!	!	!	!	!	!	!	!	!	!	!	!
4F\	.	2c\	.	2a-/	.	2cc\ 2f\	f	2An\	Twą	2c\	Twą	2.ryy	2.ryy	0.r	.	0.r	.	4F\	.	0.r	.	0.r	.	2.ryy	2.ryy
4FF/	.	.	.	.	.	.	.	.	.	.	.	.	.	.	.	.	.	4FF/	.	.	.	.	.	.	.
!	!	!	!	!	!	!	!LO:DY:a	!	!	!	!	!	!	!	!	!	!	!	!	!	!	!	!	!	!
4r	.	4d\	.	4b-/	.	4cc\	p	4B-\	mi-	4e-\	mi-	.	.	.	.	.	.	4r	.	.	.	.	.	.	.
=43	=43	=43	=43	=43	=43	=43	=43	=43	=43	=43	=43	=43	=43	=43	=43	=43	=43	=43	=43	=43	=43	=43	=43	=43	=43
!LO:TX:a:t=2	!	!	!	!	!	!	!	!	!	!	!	!	!	!	!	!	!	!LO:TX:a:t=2	!	!	!	!	!	!	!
1.r	.	4f\	.	4dd\	.	(4ff\	.	4d\	-ło-	4f\	-ło-	2.ryy	2.ryy	.	.	.	.	1.r	.	.	.	.	.	2.ryy	2.ryy
.	.	4e-\	.	4cc\	.	4ee-\	.	4c\	.	4e-\	.	.	.	.	.	.	.	.	.	.	.	.	.	.	.
.	.	4d\	.	4b-\	.	4dd\)	.	4B-\	-scią	4d\	-scią	.	.	.	.	.	.	.	.	.	.	.	.	.	.
!	!	!	!	!	!	!	!	!LO:LB:g=original	!	!	!	!	!	!	!	!	!	!	!	!	!	!	!	!	!
=44	=44	=44	=44	=44	=44	=44	=44	=44	=44	=44	=44	=44	=44	=44	=44	=44	=44	=44	=44	=44	=44	=44	=44	=44	=44
.	.	4d\	.	4f/	.	(4dd\	.	(4F\	za-	4d\	za-	2.ryy	2.ryy	.	.	.	.	.	.	.	.	.	.	2.ryy	2.ryy
!	!	!LO:TX:a:t=pe	!	!	!	!	!	!	!	!	!	!	!	!	!	!	!	!	!	!	!	!	!	!	!
.	.	2f\	.	4e-/	.	4cc\	.	4E-\	.	4c\	.	.	.	.	.	.	.	.	.	.	.	.	.	.	.
.	.	.	.	4d/	.	4b-\)	.	4D\)	-pa-	4B-\	-pa-	.	.	.	.	.	.	.	.	.	.	.	.	.	.
!	!	!	!	!	!	!	!	!	!	!	!	!	!	!	!	!	!	!LO:LB:g=original	!	!	!	!	!	!	!
=45	=45	=45	=45	=45	=45	=45	=45	=45	=45	=45	=45	=45	=45	=45	=45	=45	=45	=45	=45	=45	=45	=45	=45	=45	=45
.	.	.	.	.	.	16qqb-/	.	.	.	16qqqB-/	.	.	.	.	.	.	.	.	.	.	.	.	.	.	.
4F\	.	2f\	.	2c/	.	2a-/	.	2C/	-lo-	2A-\	-lo-	2.ryy	2.ryy	.	.	.	.	4F\	.	.	.	.	.	2.ryy	2.ryy
4E-\	.	.	.	.	.	.	.	.	.	.	.	.	.	.	.	.	.	4E-\	.	.	.	.	.	.	.
!	!	!	!	!	!	!	!	!LO:TX:t=P:problem:4\left	!	!	!	!	!	!	!	!	!	!	!	!	!	!	!	!	!
4D\	.	4f\	.	4d/	.	4b-/	.	4D/	-ny	4B-\	-ny	.	.	.	.	.	.	4D\	.	.	.	.	.	.	.
=46	=46	=46	=46	=46	=46	=46	=46	=46	=46	=46	=46	=46	=46	=46	=46	=46	=46	=46	=46	=46	=46	=46	=46	=46	=46
*	*	*	*	*2\right	*	*	*	*	*	*	*	*	*	*	*	*	*	*	*	*	*	*	*	*	*
4C/	.	2f\	.	2cc\	.	(2ee-\	.	2c\	za-	2e-\	za-	2.ryy	2.ryy	0.r	.	0.r	.	4C/	.	0.r	.	0.r	.	2.ryy	2.ryy
4AAn/	.	.	.	.	.	.	.	.	.	.	.	.	.	.	.	.	.	4AAn/	.	.	.	.	.	.	.
4BB-/	.	4f\	.	4b-\	.	4dd\)	.	4B-\	-pa-	4d\	-pa-	.	.	.	.	.	.	4BB-/	.	.	.	.	.	.	.
!	!	!	!	!	!	!	!	!	!	!LO:LB:g=original	!	!	!	!	!	!	!	!	!	!	!	!	!	!	!
=47	=47	=47	=47	=47	=47	=47	=47	=47	=47	=47	=47	=47	=47	=47	=47	=47	=47	=47	=47	=47	=47	=47	=47	=47	=47
4F\	.	4f\	.	4b-\	.	4dd\	.	4B-\	-lo-	4d\	-lo-	2.ryy	2.ryy	.	.	.	.	4F\	.	.	.	.	.	2.ryy	2.ryy
!	!	!	!	!LO:SIC:v:s=4an\	!	!	!	!	!	!	!	!	!	!	!	!	!	!	!	!	!	!	!	!	!
4FF/	.	4f\	.	4a-\	.	4cc\	.	4An\	-ny	4c\	-ny	.	.	.	.	.	.	4FF/	.	.	.	.	.	.	.
!	!	!LO:TX:a:t=te	!	!	!	!	!	!	!	!	!	!	!	!	!	!	!	!	!	!	!	!	!	!	!
4r	.	4r	.	4r	.	4r	.	4r	.	4r	.	.	.	.	.	.	.	4r	.	.	.	.	.	.	.
!	!	!	!	!	!	!LO:LB:g=original	!	!	!	!	!	!	!	!	!	!	!	!	!	!	!	!	!	!	!
=48	=48	=48	=48	=48	=48	=48	=48	=48	=48	=48	=48	=48	=48	=48	=48	=48	=48	=48	=48	=48	=48	=48	=48	=48	=48
!	!	!LO:TX:t=P:problem:t.48-53 zapisane jako repetycja	!	!	!	!	!	!	!	!	!	!	!	!	!	!	!	!	!	!	!	!	!	!	!
!	!	!LO:TX:a:t=Re	!	!	!	!	!	!	!	!	!	!	!	!	!	!	!	!	!	!	!	!	!	!	!
!	!	!LO:TX:b:i:t=Dolce	!	!	!	!	!LO:DY:a:rj	!	!	!	!	!	!	!	!	!	!	!	!	!	!	!	!	!	!
4F\	.	2c\yy	.	2an/	.	2cc/ 2f/	fp	2An\	Nie-	2c\	nie-	2.ryy	2.ryy	.	.	.	.	4F\	.	.	.	.	.	2.ryy	2.ryy
4FF/	.	.	.	.	.	.	.	.	.	.	.	.	.	.	.	.	.	4FF/	.	.	.	.	.	.	.
4r	.	4d\yy	.	4b-/	.	4dd\	.	4B-\	-chay	4d\	-chay	.	.	.	.	.	.	4r	.	.	.	.	.	.	.
=49	=49	=49	=49	=49	=49	=49	=49	=49	=49	=49	=49	=49	=49	=49	=49	=49	=49	=49	=49	=49	=49	=49	=49	=49	=49
!LO:TX:a:t=2	!	!	!	!	!	!	!	!	!	!	!	!	!	!	!	!	!	!LO:TX:a:t=2	!	!	!	!	!	!	!
1.r	.	4f\yy	.	4dd\	.	(4ff\	.	4d\	bę-	4f\	bę-	2.ryy	2.ryy	.	.	.	.	1.r	.	.	.	.	.	2.ryy	2.ryy
.	.	4e-\yy	.	4cc\	.	4ee-\	.	4c\	.	4e-\	.	.	.	.	.	.	.	.	.	.	.	.	.	.	.
.	.	4d\yy	.	4b-\	.	4dd\)	.	4B-\	-de	4d\	-de	.	.	.	.	.	.	.	.	.	.	.	.	.	.
!	!	!	!	!	!	!	!	!LO:LB:g=original	!	!	!	!	!	!	!	!	!	!	!	!	!	!	!	!	!
=50	=50	=50	=50	=50	=50	=50	=50	=50	=50	=50	=50	=50	=50	=50	=50	=50	=50	=50	=50	=50	=50	=50	=50	=50	=50
.	.	4d\yy	.	4f/	.	(4dd\	.	4F\	o-	4d\	o-	2.ryy	2.ryy	0.r	.	0.r	.	.	.	0.r	.	0.r	.	2.ryy	2.ryy
!	!	!LO:TX:a:t=pe	!	!	!	!	!	!	!	!	!	!	!	!	!	!	!	!	!	!	!	!	!	!	!
.	.	2f\yy	.	4e-/	.	4cc\	.	4E-\	.	4c\	.	.	.	.	.	.	.	.	.	.	.	.	.	.	.
.	.	.	.	4d/	.	4b-\)	.	4D\	-bro-	4B-\	-bro-	.	.	.	.	.	.	.	.	.	.	.	.	.	.
=51	=51	=51	=51	=51	=51	=51	=51	=51	=51	=51	=51	=51	=51	=51	=51	=51	=51	=51	=51	=51	=51	=51	=51	=51	=51
.	.	.	.	.	.	16qqb-/	.	.	.	.	.	.	.	.	.	.	.	.	.	.	.	.	.	.	.
!	!	!	!	!	!	!LO:SIC:v:s=2an	!	!	!	!	!	!	!	!	!	!	!	!	!	!	!	!	!	!	!
4F\	.	2f\yy	.	2c/	.	2a-/	.	2C/	-ni-	2A-\	-nio-	2.ryy	2.ryy	.	.	.	.	4F\	.	.	.	.	.	2.ryy	2.ryy
4E-\	.	.	.	.	.	.	.	.	.	.	.	.	.	.	.	.	.	4E-\	.	.	.	.	.	.	.
4D\	.	4f\yy	.	4d/	.	4b-/	.	4D/	-ny	4B-\	-ny	.	.	.	.	.	.	4D\	.	.	.	.	.	.	.
=52	=52	=52	=52	=52	=52	=52	=52	=52	=52	=52	=52	=52	=52	=52	=52	=52	=52	=52	=52	=52	=52	=52	=52	=52	=52
4C/	.	2f\yy	.	2cc\	.	(2ee-\	.	2c\	O-	2e-\	o-	2.ryy	2.ryy	.	.	.	.	4C/	.	.	.	.	.	2.ryy	2.ryy
4AAn/	.	.	.	.	.	.	.	.	.	.	.	.	.	.	.	.	.	4AAn/	.	.	.	.	.	.	.
4BB-/	.	4f\yy	.	4b-\	.	4dd\)	.	4B-\	-bro-	4d\	-bro-	.	.	.	.	.	.	4BB-/	.	.	.	.	.	.	.
=53	=53	=53	=53	=53	=53	=53	=53	=53	=53	=53	=53	=53	=53	=53	=53	=53	=53	=53	=53	=53	=53	=53	=53	=53	=53
4F\	.	4f\yy	.	4b-\	.	4dd\	.	4B-\	-ni-	4d\	-nio-	2.ryy	2.ryy	.	.	.	.	4F\	.	.	.	.	.	2.ryy	2.ryy
!	!	!	!	!LO:SIC:v:s=4an\	!	!	!	!	!	!	!	!	!	!	!	!	!	!	!	!	!	!	!	!	!
4FF/	.	4f\yy	.	4a-\	.	4cc\	.	4An\	-ny	4c\	-ny:	.	.	.	.	.	.	4FF/	.	.	.	.	.	.	.
!	!	!LO:TX:a:t=te	!	!	!	!	!	!	!	!	!	!	!	!	!	!	!	!	!	!	!	!	!	!	!
4r	.	4ryy	.	4r	.	4r	.	4r	.	4r	.	.	.	.	.	.	.	4r	.	.	.	.	.	.	.
=54	=54	=54	=54	=54	=54	=54	=54	=54	=54	=54	=54	=54	=54	=54	=54	=54	=54	=54	=54	=54	=54	=54	=54	=54	=54
!	!	!	!	!LO:TX:a:t=2.	!	!	!	!LO:TX:a:t=2	!	!	!	!	!	!	!	!	!	!	!	!	!	!	!	!	!
4BB-/	.	4f\	.	1.r	.	4b-\	.	1.r	.	4B-\	Twą	2.ryy	2.ryy	0.r	.	0.r	.	4BB-/	.	0.r	.	0.r	.	2.ryy	2.ryy
4r	.	4r	.	.	.	(8cc\L	.	.	.	8c\L	.	.	.	.	.	.	.	4r	.	.	.	.	.	.	.
.	.	.	.	.	.	8b-\	.	.	.	8B-\J	.	.	.	.	.	.	.	.	.	.	.	.	.	.	.
4r	.	4r	.	.	.	8ee-\	.	.	.	8e-\L	mi-	.	.	.	.	.	.	4r	.	.	.	.	.	.	.
.	.	.	.	.	.	8dd\J)	.	.	.	8d\J	.	.	.	.	.	.	.	.	.	.	.	.	.	.	.
!LO:PB:g=original	!	!	!	!	!	!	!	!	!	!	!	!	!	!	!	!	!	!	!	!	!	!	!	!	!
=55	=55	=55	=55	=55	=55	=55	=55	=55	=55	=55	=55	=55	=55	=55	=55	=55	=55	=55	=55	=55	=55	=55	=55	=55	=55
!LO:TX:a:t=1	!	!	!	!	!	!	!	!	!	!	!	!	!	!	!	!	!	!	!	!	!	!	!	!	!
!LO:TX:t=P:problem:dalsza część partii Fundamento! na skanie 33	!	!LO:TX:a:t=1.	!	!	!	!	!	!	!	!	!	!	!	!	!	!	!	!LO:TX:a:t=1.	!	!	!	!	!	!	!
.	.	.	.	.	.	16qqdd/	.	.	.	16qqd/	.	.	.	.	.	.	.	.	.	.	.	.	.	.	.
2.r	.	2.r	.	.	.	8cc\L	.	.	.	8c\L	-ło	2.ryy	2.ryy	.	.	.	.	2.r	.	.	.	.	.	2.ryy	2.ryy
.	.	.	.	.	.	8b-\	.	.	.	8B-\	.	.	.	.	.	.	.	.	.	.	.	.	.	.	.
.	.	.	.	.	.	16qqdd/	.	.	.	16qqd/	.	.	.	.	.	.	.	.	.	.	.	.	.	.	.
.	.	.	.	.	.	8cc\	.	.	.	8c\	.	.	.	.	.	.	.	.	.	.	.	.	.	.	.
.	.	.	.	.	.	8b-\	.	.	.	8B-\J	.	.	.	.	.	.	.	.	.	.	.	.	.	.	.
.	.	.	.	.	.	16qqdd/	.	.	.	16qqd/	.	.	.	.	.	.	.	.	.	.	.	.	.	.	.
.	.	.	.	.	.	8cc\	.	.	.	8c\L	.	.	.	.	.	.	.	.	.	.	.	.	.	.	.
.	.	.	.	.	.	8b-\J	.	.	.	8B-\J	.	.	.	.	.	.	.	.	.	.	.	.	.	.	.
=56	=56	=56	=56	=56	=56	=56	=56	=56	=56	=56	=56	=56	=56	=56	=56	=56	=56	=56	=56	=56	=56	=56	=56	=56	=56
4BB-/	.	4f\	.	4b-\	.	4dd\	.	4B-\	Twą	4d\	Twą	2.ryy	2.ryy	.	.	.	.	4BB-/	.	.	.	.	.	2.ryy	2.ryy
4r	.	4r	.	(8cc\L	.	(8ee-\L	.	8c\L	.	8e-\L	mi-	.	.	.	.	.	.	4r	.	.	.	.	.	.	.
.	.	.	.	8b-\	.	8dd\)	.	8B-\J	.	8d\J	.	.	.	.	.	.	.	.	.	.	.	.	.	.	.
!	!	!	!	!	!	!	!	!	!	!LO:LB:g=original	!	!	!	!	!	!	!	!	!	!	!	!	!	!	!
4r	.	4r	.	8ee-\	.	(8gg\	.	8e-\L	mi-	8g\L	.	.	.	.	.	.	.	4r	.	.	.	.	.	.	.
.	.	.	.	8dd\J)	.	8ff\J)	.	8d\J	.	8f\J	.	.	.	.	.	.	.	.	.	.	.	.	.	.	.
!	!	!	!	!LO:LB:g=original	!	!	!	!	!	!	!	!	!	!	!	!	!	!	!	!	!	!	!	!	!
=57	=57	=57	=57	=57	=57	=57	=57	=57	=57	=57	=57	=57	=57	=57	=57	=57	=57	=57	=57	=57	=57	=57	=57	=57	=57
!	!	!LO:TX:a:t=1.	!	!	!	!	!	!	!	!	!	!	!	!	!	!	!	!LO:TX:a:t=1.	!	!	!	!	!	!	!
.	.	.	.	16qqdd/	.	16qqff/	.	16qqd/	.	16qqf/	.	.	.	.	.	.	.	.	.	.	.	.	.	.	.
2.r	.	2.r	.	8cc\L	.	8ee-\L	.	8c\L	-ło-	8e-\L	-ło-	2.ryy	2.ryy	.	.	.	.	2.r	.	.	.	.	.	2.ryy	2.ryy
.	.	.	.	8b-\	.	8dd\	.	8B-\	.	8d\J	.	.	.	.	.	.	.	.	.	.	.	.	.	.	.
.	.	.	.	16qqdd/	.	16qqff/	.	16qqd/	.	16qqf/	.	.	.	.	.	.	.	.	.	.	.	.	.	.	.
.	.	.	.	8cc\	.	8ee-\	.	8c\	.	8e-\L	.	.	.	.	.	.	.	.	.	.	.	.	.	.	.
.	.	.	.	8b-\	.	8dd\	.	8B-\J	.	8d\J	.	.	.	.	.	.	.	.	.	.	.	.	.	.	.
.	.	.	.	16qqdd/	.	16qqff/	.	16qqqd/	.	16qqf/	.	.	.	.	.	.	.	.	.	.	.	.	.	.	.
.	.	.	.	8cc\	.	8ee-\	.	8c\L	.	8e-\L	.	.	.	.	.	.	.	.	.	.	.	.	.	.	.
.	.	.	.	8b-\J	.	8dd\J	.	8B-\J	.	8d\J	.	.	.	.	.	.	.	.	.	.	.	.	.	.	.
!	!	!LO:PB:g=original	!	!	!	!LO:LB:g=original	!	!	!	!	!	!	!	!	!	!	!	!	!	!	!	!	!	!	!
=58	=58	=58	=58	=58	=58	=58	=58	=58	=58	=58	=58	=58	=58	=58	=58	=58	=58	=58	=58	=58	=58	=58	=58	=58	=58
!	!	!LO:TX:t=P:problem:kolejność znaków e-B- A-	!	!	!	!	!	!	!	!	!	!	!	!	!	!	!	!	!	!	!	!	!	!	!
4E-\	.	4g\	.	8g/L	.	(16ff\LL	.	8G\	.	16f\LL	.	2.ryy	2.ryy	0.r	.	0.r	.	4E-\	.	0.r	.	0.r	.	2.r	2.r
.	.	.	.	.	.	16ee-\	.	.	.	16e-\	.	.	.	.	.	.	.	.	.	.	.	.	.	.	.
.	.	.	.	16f/L	.	16dd\	.	16F\LL	.	16d\	.	.	.	.	.	.	.	.	.	.	.	.	.	.	.
.	.	.	.	16e-/JJ	.	16cc\JJ)	.	16E-\JJ	.	16c\JJ	.	.	.	.	.	.	.	.	.	.	.	.	.	.	.
4F\	.	4f\	.	4d/	.	4b-\	.	4D\	-scią	4B-\	-scią	.	.	.	.	.	.	4F\	.	.	.	.	.	.	.
!	!	!	!	!	!	!LO:SIC:v:s=4an\	!	!	!	!	!	!	!	!	!	!	!	!	!	!	!	!	!	!	!
4FF/	.	4f\	.	4c/	.	4a-\	.	4C\	za-	4A-\	za-	.	.	.	.	.	.	4FF/	.	.	.	.	.	.	.
!	!	!	!	!	!	!	!	!LO:PB:g=original	!	!	!	!	!	!	!	!	!	!	!	!	!	!	!	!	!
=59	=59	=59	=59	=59	=59	=59	=59	=59	=59	=59	=59	=59	=59	=59	=59	=59	=59	=59	=59	=59	=59	=59	=59	=59	=59
4BB-/	.	4f\	.	(8b-/L	.	(8dd\L	.	4B-\	-pa-	8d\L	.	2.ryy	2.ryy	.	.	.	.	4BB-/	.	.	.	.	.	2.ryy	2.ryy
.	.	.	.	8f/)	.	8b-\J)	.	.	.	8B-\J	.	.	.	.	.	.	.	.	.	.	.	.	.	.	.
!	!	!	!	!	!	!	!	!	!	!LO:TX:t=P:problem:4\left	!	!	!	!	!	!	!	!	!	!	!	!	!	!	!
4r	.	4r	.	(8b-/	.	4f/	.	4D\	-lo-	4F/	-pa-	.	.	.	.	.	.	4r	.	.	.	.	.	.	.
.	.	.	.	8f/)	.	.	.	.	.	.	.	.	.	.	.	.	.	.	.	.	.	.	.	.	.
4F\	.	4f\	.	(8b-/	.	(8ee-\L	.	8c\L	.	8e-\L	-lo-	.	.	.	.	.	.	4F\	.	.	.	.	.	.	.
.	.	.	.	8f/J)	.	8cc\J)	.	8A-\J	.	8f\J	.	.	.	.	.	.	.	.	.	.	.	.	.	.	.
!	!	!	!	!	!	!	!	!	!	!	!	!	!	!	!	!	!	!LO:LB:g=original	!	!	!	!	!	!	!
=60	=60	=60	=60	=60	=60	=60	=60	=60	=60	=60	=60	=60	=60	=60	=60	=60	=60	=60	=60	=60	=60	=60	=60	=60	=60
4BB-/	.	4f\	.	(8b-/L	.	8dd\L	.	4B-\	.	8d\L	.	2.ryy	2.ryy	.	.	.	.	4BB-/	.	.	.	.	.	2.ryy	2.ryy
.	.	.	.	8f/)	.	8b-\J	.	.	.	8B-\J	.	.	.	.	.	.	.	.	.	.	.	.	.	.	.
4r	.	4r	.	(8b-/	.	4f/	.	4D\	.	4G/	.	.	.	.	.	.	.	4r	.	.	.	.	.	.	.
.	.	.	.	8f/)	.	.	.	.	.	.	.	.	.	.	.	.	.	.	.	.	.	.	.	.	.
!	!	!	!	!LO:SIC:v:s=(8an/	!	!	!	!	!	!	!	!	!	!	!	!	!	!	!	!	!	!	!	!	!
4F\	.	4f\	.	(8a-/	.	(8ee-\L	.	8c\L	.	8e-\L	.	.	.	.	.	.	.	4F\	.	.	.	.	.	.	.
.	.	.	.	8f/J)	.	8cc\J)	.	8A-\J	.	8c\J	.	.	.	.	.	.	.	.	.	.	.	.	.	.	.
=61	=61	=61	=61	=61	=61	=61	=61	=61	=61	=61	=61	=61	=61	=61	=61	=61	=61	=61	=61	=61	=61	=61	=61	=61	=61
4D\	.	4f\	.	8d/L	.	8ff\L	.	8E-\L	.	8f\L	.	2.ryy	2.ryy	.	.	.	.	8B-\L	.	.	.	.	.	2.ryy	2.ryy
.	.	.	.	8f/J	.	8b-\J	.	8F\J	.	8B-\J	.	.	.	.	.	.	.	8D\J	.	.	.	.	.	.	.
.	.	.	.	.	.	.	.	.	.	16qqd/	.	.	.	.	.	.	.	.	.	.	.	.	.	.	.
4E-\	.	4g\	.	4e-/	.	4cc\	.	4E-\	.	4c\	.	.	.	.	.	.	.	4E-\	.	.	.	.	.	.	.
!	!	!	!	!	!	!LO:SIC:v:s=4an\	!	!	!	!	!	!	!	!	!	!	!	!	!	!	!	!	!	!	!
4F\	.	4f\	.	4c/	.	4a-\	.	4C/	.	4A-\	.	.	.	.	.	.	.	4F\	.	.	.	.	.	.	.
=62	=62	=62	=62	=62	=62	=62	=62	=62	=62	=62	=62	=62	=62	=62	=62	=62	=62	=62	=62	=62	=62	=62	=62	=62	=62
!	!	!	!	!	!	!LO:SIC:v:s=4an/	!	!	!	!	!	!	!	!	!	!	!	!	!	!	!	!	!	!	!
4BB-/	.	2f\	.	4c/	.	4a-/	.	4C/	.	4A-\	.	2.ryy	2.ryy	2.r	.	2.r	.	4B-\	.	2.r	.	2.r	.	2.ryy	2.ryy
4B-\	.	.	.	4d/	.	4b-/	.	4D/	-ny	4B-\	-ny	.	.	.	.	.	.	4F\	.	.	.	.	.	.	.
4BB-/	.	4r	.	4r	.	4r	.	4r	.	4r	.	.	.	.	.	.	.	4BB-/	.	.	.	.	.	.	.
=63	=63	=63	=63	=63	=63	=63	=63	=63	=63	=63	=63	=63	=63	=63	=63	=63	=63	=63	=63	=63	=63	=63	=63	=63	=63
*	*	*	*	*	*	*	*	*	*	*	*	*	*	*2\right	*	*	*	*	*	*	*	*	*	*	*
!	!LO:DY:t=f&colon;	!	!LO:DY:rj:t=f&colon;	!	!LO:DY:a:rj	!	!LO:DY:a:rj	!LO:TX:a:t=24.	!	!LO:TX:a:t=15	!	!	!	!	!	!	!	!	!	!	!	!	!	!	!
4F\	f	(8e-\L	f	8cc\L	f	8ee-\L	f	0.r	.	0.r	.	2.ryy	2.ryy	2.f\	.	2.f\	.	(8e-\L	.	2.f/	.	2.cc\	.	2.ryy	2.ryy
!	!	!	!	!LO:SIC:v:s=8an\J	!	!	!	!	!	!	!	!	!	!	!	!	!	!	!	!	!	!	!	!	!
.	.	8f\)	.	8a-\J	.	8cc\J	.	.	.	.	.	.	.	.	.	.	.	8c\J)	.	.	.	.	.	.	.
!	!	!	!	!LO:SIC:v:s=2a\	!	!	!	!	!	!	!	!	!	!	!	!	!	!	!	!	!	!	!	!	!
4A-\	.	(8e-\	.	2a-\	.	2cc\	.	.	.	.	.	.	.	.	.	.	.	2c\	.	.	.	.	.	.	.
.	.	8f\)	.	.	.	.	.	.	.	.	.	.	.	.	.	.	.	.	.	.	.	.	.	.	.
4F\	.	(8e-\	.	.	.	.	.	.	.	.	.	.	.	.	.	.	.	.	.	.	.	.	.	.	.
.	.	8f\J)	.	.	.	.	.	.	.	.	.	.	.	.	.	.	.	.	.	.	.	.	.	.	.
!	!	!	!	!	!	!	!	!	!	!	!	!	!	!LO:LB:g=original	!	!	!	!	!	!	!	!	!	!	!
=64	=64	=64	=64	=64	=64	=64	=64	=64	=64	=64	=64	=64	=64	=64	=64	=64	=64	=64	=64	=64	=64	=64	=64	=64	=64
4BB-/	.	(8d\L	.	8b-/L	.	8dd\L	.	.	.	.	.	2.ryy	2.ryy	2.B-/	.	2.f\	.	8d\L	.	2.b-/	.	2.dd\	.	2.ryy	2.ryy
.	.	8f\)	.	8d/J	.	8b-\J	.	.	.	.	.	.	.	.	.	.	.	8B-\J	.	.	.	.	.	.	.
4D/	.	(8d\	.	2d/	.	2b-\	.	.	.	.	.	.	.	.	.	.	.	2B-\	.	.	.	.	.	.	.
.	.	8f\)	.	.	.	.	.	.	.	.	.	.	.	.	.	.	.	.	.	.	.	.	.	.	.
4BB-/	.	(8d\	.	.	.	.	.	.	.	.	.	.	.	.	.	.	.	.	.	.	.	.	.	.	.
.	.	8f\J)	.	.	.	.	.	.	.	.	.	.	.	.	.	.	.	.	.	.	.	.	.	.	.
=65	=65	=65	=65	=65	=65	=65	=65	=65	=65	=65	=65	=65	=65	=65	=65	=65	=65	=65	=65	=65	=65	=65	=65	=65	=65
.	.	.	.	16qqf/	.	16qqdd/	.	.	.	.	.	.	.	.	.	.	.	8qqqd/	.	.	.	.	.	.	.
4E-\	.	8f\	.	4e-/	.	4cc\	.	.	.	.	.	2.ryy	2.ryy	4f\	.	4f\	.	4c\	.	(4cc\	.	4ee-\	.	2.ryy	2.ryy
.	.	4f\	.	.	.	.	.	.	.	.	.	.	.	.	.	.	.	.	.	.	.	.	.	.	.
!	!	!	!	!	!	!	!	!	!	!	!	!	!	!	!	!	!	!4	!	!	!	!	!	!	!
.	.	.	.	16qqe-/	.	16qqcc/	.	.	.	.	.	.	.	.	.	.	.	8qqqc/	.	.	.	.	.	.	.
4F\	.	.	.	4d/	.	4b-\	.	.	.	.	.	.	.	4r	.	4r	.	4B-\	.	4b-\)	.	4dd\	.	.	.
.	.	4f\	.	.	.	.	.	.	.	.	.	.	.	.	.	.	.	.	.	.	.	.	.	.	.
.	.	.	.	16qqd/	.	16qqb-/	.	.	.	.	.	.	.	.	.	.	.	8qqqB-/	.	.	.	.	.	.	.
4FF/	.	.	.	4c/	.	4an\	.	.	.	.	.	.	.	4r	.	4r	.	4An\	.	4f/	.	4cc\	.	.	.
.	.	8f\	.	.	.	.	.	.	.	.	.	.	.	.	.	.	.	.	.	.	.	.	.	.	.
=66	=66	=66	=66	=66	=66	=66	=66	=66	=66	=66	=66	=66	=66	=66	=66	=66	=66	=66	=66	=66	=66	=66	=66	=66	=66
!	!	!	!	!LO:TX:t=P:problem:mixed beam	!	!	!	!	!	!	!	!	!	!	!	!	!	!	!	!	!	!	!	!	!
4BB-/	.	8f\	.	8.d/L	.	8.b-\L	.	.	.	.	.	2.ryy	2.ryy	4B-/	.	4f\	.	8.B-\L	.	4d/	.	8.b-\L	.	2.ryy	2.ryy
.	.	4f\	.	.	.	.	.	.	.	.	.	.	.	.	.	.	.	.	.	.	.	.	.	.	.
.	.	.	.	16b-\Jk	.	16dd\Jk	.	.	.	.	.	.	.	.	.	.	.	16d\Jk	.	.	.	16dd\Jk	.	.	.
!	!	!	!	!LO:SIC:v:s=4an/	!	!	!	!	!	!	!	!	!	!	!	!	!	!	!	!	!	!	!	!	!
4F\	.	.	.	4a-/	.	4cc\	.	.	.	.	.	.	.	4f\	.	4f\	.	4c\	.	4f/	.	4cc\	.	.	.
.	.	4f\	.	.	.	.	.	.	.	.	.	.	.	.	.	.	.	.	.	.	.	.	.	.	.
4r	.	.	.	4r	.	4r	.	.	.	.	.	.	.	4r	.	4r	.	4r	.	4r	.	4r	.	.	.
.	.	8f\	.	.	.	.	.	.	.	.	.	.	.	.	.	.	.	.	.	.	.	.	.	.	.
!LO:LB:g=original	!	!	!	!	!	!LO:LB:g=original	!	!	!	!	!	!	!	!	!	!	!	!	!	!	!	!	!	!	!
=67	=67	=67	=67	=67	=67	=67	=67	=67	=67	=67	=67	=67	=67	=67	=67	=67	=67	=67	=67	=67	=67	=67	=67	=67	=67
!	!	!	!	!	!LO:DY:a	!	!LO:DY:a:rj	!	!	!	!	!	!	!	!	!	!LO:DY:rj	!	!	!	!LO:DY:t=piano.	!	!LO:DY:t=p&colon;	!	!
4F\	.	(8e-\L	.	8cc\L	p	8ee-\L	p	0.r	.	0.r	.	2.ryy	2.ryy	2.f\	p	2.f\	p	(8e-\L	.	2.f/	p	2.cc\	p	2.ryy	2.ryy
!	!	!	!	!LO:SIC:v:s=8an\J	!	!	!	!	!	!	!	!	!	!	!	!	!	!	!	!	!	!	!	!	!
.	.	8f\)	.	8a-\J	.	8cc\J	.	.	.	.	.	.	.	.	.	.	.	8c\J)	.	.	.	.	.	.	.
!	!	!	!	!LO:SIC:v:s=2a/	!	!	!	!	!	!	!	!	!	!	!	!	!	!	!	!	!	!	!	!	!
4A-\	.	(8e-\	.	2a-/	.	2cc\	.	.	.	.	.	.	.	.	.	.	.	2c\	.	.	.	.	.	.	.
.	.	8f\)	.	.	.	.	.	.	.	.	.	.	.	.	.	.	.	.	.	.	.	.	.	.	.
4F\	.	(8e-\	.	.	.	.	.	.	.	.	.	.	.	.	.	.	.	.	.	.	.	.	.	.	.
.	.	8f\J)	.	.	.	.	.	.	.	.	.	.	.	.	.	.	.	.	.	.	.	.	.	.	.
!	!	!	!	!LO:LB:g=original	!	!	!	!	!	!	!	!	!	!	!	!	!	!	!	!	!	!	!	!	!
=68	=68	=68	=68	=68	=68	=68	=68	=68	=68	=68	=68	=68	=68	=68	=68	=68	=68	=68	=68	=68	=68	=68	=68	=68	=68
4BB-/	.	(8d\L	.	8b-/L	.	8dd\L	.	.	.	.	.	2.ryy	2.ryy	2.B-/	.	2.f\	.	(8d\L	.	2.b-\	.	2.dd\	.	2.ryy	2.ryy
.	.	8f\)	.	8d/J	.	8b-\J	.	.	.	.	.	.	.	.	.	.	.	8B-\J)	.	.	.	.	.	.	.
4D/	.	(8d\	.	2d/	.	2b-\	.	.	.	.	.	.	.	.	.	.	.	2B-\	.	.	.	.	.	.	.
.	.	8f\)	.	.	.	.	.	.	.	.	.	.	.	.	.	.	.	.	.	.	.	.	.	.	.
4BB-/	.	(8d\	.	.	.	.	.	.	.	.	.	.	.	.	.	.	.	.	.	.	.	.	.	.	.
.	.	8f\J)	.	.	.	.	.	.	.	.	.	.	.	.	.	.	.	.	.	.	.	.	.	.	.
!	!	!LO:LB:g=original	!	!	!	!	!	!	!	!	!	!	!	!	!	!	!	!	!	!	!	!	!	!	!
=69	=69	=69	=69	=69	=69	=69	=69	=69	=69	=69	=69	=69	=69	=69	=69	=69	=69	=69	=69	=69	=69	=69	=69	=69	=69
.	.	.	.	.	.	16qqdd/	.	.	.	.	.	.	.	.	.	.	.	8qqqd/	.	.	.	.	.	.	.
4E-\	.	8f\	.	(4e-/	.	4cc\	.	.	.	.	.	2.ryy	2.ryy	4f\	.	4f\	.	4c\	.	4cc\	.	4ee-\	.	2.ryy	2.ryy
.	.	4f\	.	.	.	.	.	.	.	.	.	.	.	.	.	.	.	.	.	.	.	.	.	.	.
.	.	.	.	.	.	16qqcc/	.	.	.	.	.	.	.	.	.	.	.	8qqqc/	.	.	.	.	.	.	.
4F\	.	.	.	4d/)	.	4b-\	.	.	.	.	.	.	.	4r	.	4r	.	4B-\	.	4b-\	.	4dd\	.	.	.
.	.	4f\	.	.	.	.	.	.	.	.	.	.	.	.	.	.	.	.	.	.	.	.	.	.	.
.	.	.	.	.	.	16qqb-/	.	.	.	.	.	.	.	.	.	.	.	8qqqB-/	.	.	.	.	.	.	.
!	!	!	!	!	!	!	!	!	!	!	!	!	!	!	!	!	!	!LO:SIC:v:s=4An\	!	!	!	!	!	!	!
4FF/	.	.	.	4c/	.	4an\	.	.	.	.	.	.	.	4r	.	4r	.	4A-\	.	4f/	.	4cc\	.	.	.
.	.	8f\	.	.	.	.	.	.	.	.	.	.	.	.	.	.	.	.	.	.	.	.	.	.	.
=70	=70	=70	=70	=70	=70	=70	=70	=70	=70	=70	=70	=70	=70	=70	=70	=70	=70	=70	=70	=70	=70	=70	=70	=70	=70
!	!	!	!	!	!	!	!LO:DY:rj	!	!	!	!	!	!	!	!	!	!	!	!	!	!	!	!	!	!
4BB-/	.	4f\	.	4d/	.	4b-\	f	.	.	.	.	2.ryy	2.ryy	4B-/	f	4f\	.	4B-\	.	4d/	.	4b-\	.	2.ryy	2.ryy
4r	.	4r	.	16bb-\LL	.	(16bb-\LL	.	.	.	.	.	.	.	4r	.	4r	.	4r	.	4r	.	4r	.	.	.
!	!	!	!	!LO:SIC:v:s=16aan\	!	!LO:SIC:v:s=16aan\	!	!	!	!	!	!	!	!	!	!	!	!	!	!	!	!	!	!	!
.	.	.	.	16aa-\	.	16aa-\	.	.	.	.	.	.	.	.	.	.	.	.	.	.	.	.	.	.	.
.	.	.	.	16gg\	.	16gg\	.	.	.	.	.	.	.	.	.	.	.	.	.	.	.	.	.	.	.
.	.	.	.	16ff\JJ	.	16ff\JJ)	.	.	.	.	.	.	.	.	.	.	.	.	.	.	.	.	.	.	.
4r	.	4r	.	16ee-\LL	.	(16ee-\LL	.	.	.	.	.	.	.	4r	.	4r	.	4r	.	4r	.	4r	.	.	.
.	.	.	.	16dd\	.	16dd\	.	.	.	.	.	.	.	.	.	.	.	.	.	.	.	.	.	.	.
.	.	.	.	16cc\	.	16cc\	.	.	.	.	.	.	.	.	.	.	.	.	.	.	.	.	.	.	.
.	.	.	.	16b-\JJ	.	16b-\JJ)	.	.	.	.	.	.	.	.	.	.	.	.	.	.	.	.	.	.	.
=71	=71	=71	=71	=71	=71	=71	=71	=71	=71	=71	=71	=71	=71	=71	=71	=71	=71	=71	=71	=71	=71	=71	=71	=71	=71
4E-\	.	4g\	.	4g/	.	4e-/	.	0.r	.	0.r	.	2.ryy	2.ryy	4e-\	.	4g\	.	4E-\	.	4ee-\	.	4gg\	.	2.ryy	2.ryy
4r	.	4r	.	16gg\LL	.	16gg\LL	.	.	.	.	.	.	.	4r	.	4r	.	4r	.	4r	.	4r	.	.	.
.	.	.	.	(16ff\	.	(16ff\	.	.	.	.	.	.	.	.	.	.	.	.	.	.	.	.	.	.	.
.	.	.	.	16ee-\)	.	16ee-\	.	.	.	.	.	.	.	.	.	.	.	.	.	.	.	.	.	.	.
.	.	.	.	16dd\JJ	.	16dd\JJ)	.	.	.	.	.	.	.	.	.	.	.	.	.	.	.	.	.	.	.
4r	.	4r	.	16cc\LL	.	16cc\LL	.	.	.	.	.	.	.	4r	.	4r	.	4r	.	4r	.	4r	.	.	.
.	.	.	.	16b-\	.	(16b-\	.	.	.	.	.	.	.	.	.	.	.	.	.	.	.	.	.	.	.
!	!	!	!	!LO:SIC:v:s=16an\	!	!LO:SIC:v:s=16an\	!	!	!	!	!	!	!	!	!	!	!	!	!	!	!	!	!	!	!
.	.	.	.	16a-\	.	16a-\	.	.	.	.	.	.	.	.	.	.	.	.	.	.	.	.	.	.	.
.	.	.	.	16g\JJ	.	16g\JJ)	.	.	.	.	.	.	.	.	.	.	.	.	.	.	.	.	.	.	.
!	!	!	!	!	!	!	!	!	!	!	!	!	!	!	!	!	!	!LO:LB:g=original	!	!	!	!	!	!	!
=72	=72	=72	=72	=72	=72	=72	=72	=72	=72	=72	=72	=72	=72	=72	=72	=72	=72	=72	=72	=72	=72	=72	=72	=72	=72
8r	.	8r	.	8r	.	4f/	.	.	.	.	.	2.ryy	2.ryy	4r	.	4r	.	8r	.	4r	.	4r	.	2.ryy	2.ryy
!	!	!LO:TX:t=P:problem:8\left	!	!	!	!	!	!	!	!	!	!	!	!	!	!	!	!LO:TX:t=P:problem:mixed beam	!	!	!	!	!	!	!
8F\	.	8B-'/L	.	8d'/L	.	.	.	.	.	.	.	.	.	.	.	.	.	8F'\L	.	.	.	.	.	.	.
!LO:TX:t=P:problem:mixed beam	!	!LO:TX:t=P:problem:8\left	!	!	!	!	!	!	!	!	!	!	!	!	!	!	!	!	!	!	!	!	!	!	!
8F\L	.	8B-'/	.	8d'/	.	16b-\LL	.	.	.	.	.	.	.	4f\	.	4f\	.	8F'\	.	4b-/	.	4dd\	.	.	.
.	.	.	.	.	.	(16cc\	.	.	.	.	.	.	.	.	.	.	.	.	.	.	.	.	.	.	.
!	!	!LO:TX:t=P:problem:8\left	!	!	!	!	!	!	!	!	!	!	!	!	!	!	!	!	!	!	!	!	!	!	!
8F\	.	8B-'/	.	(8d/	.	16b-\	.	.	.	.	.	.	.	.	.	.	.	8F'\	.	.	.	.	.	.	.
.	.	.	.	.	.	16cc\JJ)	.	.	.	.	.	.	.	.	.	.	.	.	.	.	.	.	.	.	.
!	!	!LO:TX:t=P:problem:8\left	!	!	!	!	!	!	!	!	!	!	!	!	!	!	!	!	!	!	!	!	!	!	!
8FF/	.	8c'/	.	8e-/	.	4ccT\	.	.	.	.	.	.	.	4f\	.	4f\	.	8FF'/	.	4an/	.	4ee-\	.	.	.
!	!	!LO:TX:t=P:problem:8\left	!	!	!	!	!	!	!	!	!	!	!	!	!	!	!	!	!	!	!	!	!	!	!
8FF/J	.	8c'/J	.	8e-/J)	.	.	.	.	.	.	.	.	.	.	.	.	.	8FF'/J	.	.	.	.	.	.	.
=73	=73	=73	=73	=73	=73	=73	=73	=73	=73	=73	=73	=73	=73	=73	=73	=73	=73	=73	=73	=73	=73	=73	=73	=73	=73
!	!	!	!	!	!	!	!LO:DY:rj	!	!	!	!	!	!	!	!	!	!	!	!	!	!	!	!	!	!
4BB-/	.	4f\	.	4d/	.	4b-\	p	.	.	.	.	2.ryy	2.ryy	4B-/	.	4f\	.	4BB-/	.	4b-/	.	4dd\	.	2.ryy	2.ryy
4r	.	4r	.	16bb-\LL	.	(16bb-\LL	.	.	.	.	.	.	.	4r	.	4r	.	4r	.	4r	.	4r	.	.	.
!	!	!	!	!LO:SIC:v:s=16aan\	!	!LO:SIC:v:s=16aan\	!	!	!	!	!	!	!	!	!	!	!	!	!	!	!	!	!	!	!
.	.	.	.	16aa-\	.	16aa-\	.	.	.	.	.	.	.	.	.	.	.	.	.	.	.	.	.	.	.
.	.	.	.	16gg\	.	16gg\)	.	.	.	.	.	.	.	.	.	.	.	.	.	.	.	.	.	.	.
.	.	.	.	16ff\JJ	.	16ff\JJ	.	.	.	.	.	.	.	.	.	.	.	.	.	.	.	.	.	.	.
4r	.	4r	.	16ee-\LL	.	(16ee-\LL	.	.	.	.	.	.	.	4r	.	4r	.	4r	.	4r	.	4r	.	.	.
.	.	.	.	16dd\	.	16dd\	.	.	.	.	.	.	.	.	.	.	.	.	.	.	.	.	.	.	.
.	.	.	.	16cc\	.	16cc\)	.	.	.	.	.	.	.	.	.	.	.	.	.	.	.	.	.	.	.
.	.	.	.	16b-\JJ	.	16b-\JJ	.	.	.	.	.	.	.	.	.	.	.	.	.	.	.	.	.	.	.
=74	=74	=74	=74	=74	=74	=74	=74	=74	=74	=74	=74	=74	=74	=74	=74	=74	=74	=74	=74	=74	=74	=74	=74	=74	=74
4E-\	.	4g\	.	4g/	.	4e-/	.	.	.	.	.	2.ryy	2.ryy	4E-/	.	4G/	.	4EE-/	.	4ee-\	.	4gg\	.	2.ryy	2.ryy
4r	.	4r	.	16gg\LL	.	16gg\LL	.	.	.	.	.	.	.	4r	.	4r	.	4r	.	4r	.	4r	.	.	.
.	.	.	.	16ff\	.	16ff\	.	.	.	.	.	.	.	.	.	.	.	.	.	.	.	.	.	.	.
.	.	.	.	16ee-\	.	16ee-\	.	.	.	.	.	.	.	.	.	.	.	.	.	.	.	.	.	.	.
.	.	.	.	16dd\JJ	.	16dd\JJ	.	.	.	.	.	.	.	.	.	.	.	.	.	.	.	.	.	.	.
!	!	!	!	!	!	!LO:LB:g=original	!	!	!	!	!	!	!	!	!	!	!	!	!	!	!	!	!	!	!
4r	.	4r	.	16cc\LL	.	(16cc\LL	.	.	.	.	.	.	.	4r	.	4r	.	4r	.	4r	.	4r	.	.	.
.	.	.	.	16b-\	.	16b-\	.	.	.	.	.	.	.	.	.	.	.	.	.	.	.	.	.	.	.
!	!	!	!	!LO:SIC:v:s=16an\	!	!LO:SIC:v:s=16an\	!	!	!	!	!	!	!	!	!	!	!	!	!	!	!	!	!	!	!
.	.	.	.	16a-\	.	16a-\	.	.	.	.	.	.	.	.	.	.	.	.	.	.	.	.	.	.	.
.	.	.	.	16g\JJ	.	16g\JJ)	.	.	.	.	.	.	.	.	.	.	.	.	.	.	.	.	.	.	.
!	!	!	!	!	!	!	!	!	!	!	!	!	!	!	!	!	!	!	!	!LO:LB:g=original	!	!LO:LB:g=original	!	!	!
=75	=75	=75	=75	=75	=75	=75	=75	=75	=75	=75	=75	=75	=75	=75	=75	=75	=75	=75	=75	=75	=75	=75	=75	=75	=75
!	!	!	!LO:DY:t=f&colon;	!	!	!LO:TX:t=P:problem:mixed beam	!LO:DY:rj	!	!	!	!	!	!	!	!	!	!	!	!	!	!	!	!	!	!
8r	.	8r	f	8r	.	8f/L	f	0.r	.	1.r	.	2.ryy	2.ryy	4r	.	4r	.	8r	.	4r	.	8r	.	2.ryy	2.ryy
!	!	!LO:TX:t=P:problem:8\left	!	!	!	!	!	!	!	!	!	!	!	!	!	!	!	!LO:TX:t=P:problem:mixed beam	!	!	!	!	!	!	!
8F\	.	8B-'/L	.	8d/L	.	8ff\	.	.	.	.	.	.	.	.	.	.	.	8F'\L	.	.	.	8ff\L	.	.	.
!LO:TX:t=P:problem:mixed beam	!	!LO:TX:t=P:problem:8\left	!	!	!	!	!	!	!	!	!	!	!	!	!	!	!	!	!	!	!	!	!	!	!
8F\L	.	8B-'/	.	8d/	.	8dd\	.	.	.	.	.	.	.	8f\L	.	8f\L	.	8F'\	.	4b-/	.	8dd\	.	.	.
!	!	!LO:TX:t=P:problem:8\left	!	!	!	!	!	!	!	!	!	!	!	!	!	!	!	!	!	!	!	!	!	!	!
8F\	.	8B-'/	.	8d/	.	8b-\J	.	.	.	.	.	.	.	16f\L	.	16f\L	.	8F'\	.	.	.	8b-\J	.	.	.
.	.	.	.	.	.	.	.	.	.	.	.	.	.	16f\JJ	.	16f\JJ	.	.	.	.	.	.	.	.	.
!	!	!LO:TX:t=P:problem:8\left	!	!	!	!	!	!	!	!	!	!	!	!	!	!	!	!	!	!	!	!	!	!	!
8FF/	.	8c'/	.	8e-/	.	4ccT\	.	.	.	.	.	.	.	8f\L	.	8f\L	.	8FF/	.	4a-T/	.	4ccT\	.	.	.
!	!	!LO:TX:t=P:problem:8\left	!	!	!	!	!	!	!	!	!	!	!	!	!	!	!	!	!	!	!	!	!	!	!
8FF/J	.	8c'/J	.	8e-/J	.	.	.	.	.	.	.	.	.	8f\J	.	8f\J	.	8FF/J	.	.	.	.	.	.	.
=76	=76	=76	=76	=76	=76	=76	=76	=76	=76	=76	=76	=76	=76	=76	=76	=76	=76	=76	=76	=76	=76	=76	=76	=76	=76
4BB-/	.	4f\	.	4d/	.	4cc\	.	.	.	.	.	2.ryy	2.ryy	4B-/	.	4f\	.	4BB-/	.	4d/	.	4b-\	.	2.ryy	2.ryy
4r	.	4r	.	8d/L	.	(8b-\L	.	.	.	.	.	.	.	4r	.	4r	.	8B-\L	.	4r	.	4r	.	.	.
.	.	.	.	8f/	.	8dd\	.	.	.	.	.	.	.	.	.	.	.	8d\	.	.	.	.	.	.	.
4F\	.	4r	.	8d/	.	8b-\	.	.	.	.	.	.	.	4r	.	4r	.	8B-\	.	4r	.	4r	.	.	.
.	.	.	.	8f/J	.	8dd\J)	.	.	.	.	.	.	.	.	.	.	.	8d\J	.	.	.	.	.	.	.
!	!	!	!	!LO:LB:g=original	!	!	!	!	!	!	!	!	!	!	!	!LO:LB:g=original	!	!	!	!	!	!	!	!	!
=77	=77	=77	=77	=77	=77	=77	=77	=77	=77	=77	=77	=77	=77	=77	=77	=77	=77	=77	=77	=77	=77	=77	=77	=77	=77
2BB-/	.	2f\	.	2e-/	.	2cc\	.	.	.	2.r	.	2.ryy	2.ryy	2f\	.	2f\	.	2c\	.	2a-/	.	2cc\	.	2.ryy	2.ryy
8BB-/	.	8f\	.	8d/	.	8b-\	.	.	.	.	.	.	.	8B-/	.	8f\	.	8B-\	.	8b-/	.	8dd\	.	.	.
8r	.	8r	.	8r	.	8r	.	.	.	.	.	.	.	8r	.	8r	.	8r	.	8r	.	8r	.	.	.
!LO:LB:g=original	!	!	!	!	!	!	!	!	!	!LO:LB:g=original	!	!	!	!	!	!	!	!	!	!	!	!	!	!	!
=78	=78	=78	=78	=78	=78	=78	=78	=78	=78	=78	=78	=78	=78	=78	=78	=78	=78	=78	=78	=78	=78	=78	=78	=78	=78
!	!	!	!LO:DY:t=p&colon;	!	!LO:DY:a	!LO:TX:i:t=dolce	!LO:DY:rj	!	!	!	!	!	!	!LO:TX:a:t=9	!	!LO:TX:a:t=9	!	!	!	!LO:TX:a:t=15.	!	!LO:TX:a:t=15.	!	!	!
4BB-/	.	4f\	p	2d/	p	2b-\	p	.	.	2B-\	Nie-	2.ryy	2.ryy	0.r	.	0.r	.	4BB-/	.	0.r	.	0.r	.	2.ryy	2.ryy
4r	.	4r	.	.	.	.	.	.	.	.	.	.	.	.	.	.	.	4r	.	.	.	.	.	.	.
4BB-/	.	4f\	.	4d/	.	(8dd\L	.	.	.	8d\L	.	.	.	.	.	.	.	4BB-/	.	.	.	.	.	.	.
.	.	.	.	.	.	8b-\J)	.	.	.	8B-\J	.	.	.	.	.	.	.	.	.	.	.	.	.	.	.
=79	=79	=79	=79	=79	=79	=79	=79	=79	=79	=79	=79	=79	=79	=79	=79	=79	=79	=79	=79	=79	=79	=79	=79	=79	=79
4F\	.	2f\	.	4d/	.	4b-\	.	0.r	.	4B-\	-chai	2.ryy	2.ryy	.	.	.	.	4F\	.	.	.	.	.	2.ryy	2.ryy
4E-\	.	.	.	4e-/	.	4an\	.	.	.	4An\	bę-	.	.	.	.	.	.	4E-\	.	.	.	.	.	.	.
4D\	.	4f\	.	4d/	.	4b-\	.	.	.	4B-\	-de	.	.	.	.	.	.	4D\	.	.	.	.	.	.	.
=80	=80	=80	=80	=80	=80	=80	=80	=80	=80	=80	=80	=80	=80	=80	=80	=80	=80	=80	=80	=80	=80	=80	=80	=80	=80
!	!	!	!	!	!	!	!	!	!	!LO:SIC:v:s=4B-\	!	!	!	!	!	!	!	!	!	!	!	!	!	!	!
!	!	!	!	!	!	!	!	!	!	!LO:TX:a:t=b	!	!	!	!	!	!	!	!	!	!	!	!	!	!	!
4E-\	.	2f/ 2B-/	.	4d/	.	4b-\	.	.	.	4c\	o-	2.ryy	2.ryy	.	.	.	.	4E-\	.	.	.	.	.	2.ryy	2.ryy
4D\	.	.	.	4d/	.	8f/L	.	.	.	8F\L	.	.	.	.	.	.	.	4D\	.	.	.	.	.	.	.
.	.	.	.	.	.	(8b-/	.	.	.	8B-\J	.	.	.	.	.	.	.	.	.	.	.	.	.	.	.
4BB-/	.	4f/ 4B-/	.	8b-\L	.	8dd/	.	.	.	8d\L	.	.	.	.	.	.	.	4C\	.	.	.	.	.	.	.
.	.	.	.	8dd\J	.	8ff/J)	.	.	.	8f\J	.	.	.	.	.	.	.	.	.	.	.	.	.	.	.
=81	=81	=81	=81	=81	=81	=81	=81	=81	=81	=81	=81	=81	=81	=81	=81	=81	=81	=81	=81	=81	=81	=81	=81	=81	=81
4F\	.	2f\	.	4dd\	.	4ff\	.	.	.	4f\	-bro-	2.ryy	2.ryy	.	.	.	.	4F\	.	.	.	.	.	2.ryy	2.ryy
4FF/	.	.	.	4cc\	.	(4ee-\	.	.	.	4e-\	-ni-	.	.	.	.	.	.	4FF/	.	.	.	.	.	.	.
4BB-/	.	4f\	.	4b-\	.	4dd\)	.	.	.	4d\	-nu	.	.	.	.	.	.	4BB-/	.	.	.	.	.	.	.
!	!	!LO:LB:g=original	!	!	!	!	!	!	!	!	!	!	!	!	!	!	!	!	!	!	!	!	!	!	!
=82	=82	=82	=82	=82	=82	=82	=82	=82	=82	=82	=82	=82	=82	=82	=82	=82	=82	=82	=82	=82	=82	=82	=82	=82	=82
!	!	!	!	!	!	!LO:TX:t=P:problem:klamra łukowa	!	!	!	!	!	!	!	!	!	!	!	!	!	!	!	!	!	!	!
!	!	!	!	!LO:TUP:b	!	!LO:TUP:a	!	!	!	!	!	!	!	!	!	!	!	!	!	!	!	!	!	!	!
4E-\	.	4g\	.	12e-/L	.	12cc\L	.	.	.	12c\L	przez	2.ryy	2.ryy	0.r	.	0.r	.	4E-\	.	0.r	.	0.r	.	2.ryy	2.ryy
.	.	.	.	12f/	.	12dd\	.	.	.	12d\	.	.	.	.	.	.	.	.	.	.	.	.	.	.	.
.	.	.	.	12e-/J	.	12cc\J	.	.	.	12c\J	.	.	.	.	.	.	.	.	.	.	.	.	.	.	.
4F\	.	4f\	.	4d/	.	4b-\	.	.	.	4B-\	cie	.	.	.	.	.	.	4F\	.	.	.	.	.	.	.
!	!	!	!	!	!	!LO:SIC:v:s=4an\	!	!	!	!	!	!	!	!	!	!	!	!	!	!	!	!	!	!	!
4FF/	.	4f\	.	4c/	.	4a-\	.	.	.	4A-\	Pan-	.	.	.	.	.	.	4FF/	.	.	.	.	.	.	.
!	!	!	!	!	!	!	!	!	!	!	!	!	!	!	!	!	!	!LO:LB:g=original	!	!	!	!	!	!	!
=83	=83	=83	=83	=83	=83	=83	=83	=83	=83	=83	=83	=83	=83	=83	=83	=83	=83	=83	=83	=83	=83	=83	=83	=83	=83
4BB-/	.	2f/ 2B-/	.	4d/	.	4b-\	.	0.r	.	4B-\	-no	2.ryy	2.ryy	.	.	.	.	4BB-/	.	.	.	.	.	2.ryy	2.ryy
4D/	.	.	.	4d/	.	(8f/L	.	.	.	8F\L	.	.	.	.	.	.	.	4D/	.	.	.	.	.	.	.
.	.	.	.	.	.	8b-/	.	.	.	8B-\J	.	.	.	.	.	.	.	.	.	.	.	.	.	.	.
4BB-/	.	4f/ 4B-/	.	8b-\L	.	8dd/	.	.	.	8d\L	.	.	.	.	.	.	.	4BB-/	.	.	.	.	.	.	.
.	.	.	.	8dd\J	.	8ff/J)	.	.	.	8f\J	.	.	.	.	.	.	.	.	.	.	.	.	.	.	.
=84	=84	=84	=84	=84	=84	=84	=84	=84	=84	=84	=84	=84	=84	=84	=84	=84	=84	=84	=84	=84	=84	=84	=84	=84	=84
2F\	.	8f\	.	4dd\	.	4ff\	.	.	.	4f\	dnia	2.ryy	2.ryy	.	.	.	.	2F\	.	.	.	.	.	2.ryy	2.ryy
.	.	4f\	.	.	.	.	.	.	.	.	.	.	.	.	.	.	.	.	.	.	.	.	.	.	.
.	.	.	.	4cc\	.	4ee-\	.	.	.	4e-\	Są-	.	.	.	.	.	.	.	.	.	.	.	.	.	.
.	.	4f\	.	.	.	.	.	.	.	.	.	.	.	.	.	.	.	.	.	.	.	.	.	.	.
4G\	.	.	.	4b-\	.	4dd\	.	.	.	4d\	-du	.	.	.	.	.	.	4G\	.	.	.	.	.	.	.
.	.	8f\	.	.	.	.	.	.	.	.	.	.	.	.	.	.	.	.	.	.	.	.	.	.	.
!	!	!	!	!	!	!LO:LB:g=original	!	!	!	!	!	!	!	!	!	!	!	!	!	!	!	!	!	!	!
=85	=85	=85	=85	=85	=85	=85	=85	=85	=85	=85	=85	=85	=85	=85	=85	=85	=85	=85	=85	=85	=85	=85	=85	=85	=85
.	.	.	.	.	.	16qqff/	.	.	.	16qqqf/	.	.	.	.	.	.	.	.	.	.	.	.	.	.	.
4E-\	.	4g\	.	8g/L	.	8ee-\L	.	.	.	8e-\	dnia	2.ryy	2.ryy	.	.	.	.	4E-\	.	.	.	.	.	2.ryy	2.ryy
.	.	.	.	8e-/J	.	16dd\L	.	.	.	16d\LL	.	.	.	.	.	.	.	.	.	.	.	.	.	.	.
.	.	.	.	.	.	16cc\JJ	.	.	.	16c\JJ	.	.	.	.	.	.	.	.	.	.	.	.	.	.	.
4F\	.	4f\	.	4d/	.	4b-\	.	.	.	4B-\	Są-	.	.	.	.	.	.	4F\	.	.	.	.	.	.	.
!	!	!	!	!	!	!	!	!	!	!LO:SIC:v:s=4An\	!	!	!	!	!	!	!	!	!	!	!	!	!	!	!
4FF/	.	4f\	.	4c/	.	4an\	.	.	.	4A-\	.	.	.	.	.	.	.	4FF/	.	.	.	.	.	.	.
!	!	!	!	!	!	!	!	!	!	!LO:LB:g=original	!	!	!	!	!	!	!	!	!	!	!	!	!	!	!
=86	=86	=86	=86	=86	=86	=86	=86	=86	=86	=86	=86	=86	=86	=86	=86	=86	=86	=86	=86	=86	=86	=86	=86	=86	=86
!	!	!	!	!	!	!LO:SIC:v:t=dotyczy przednutki:s=16qqan/	!	!	!	!	!	!	!	!	!	!	!	!	!	!	!	!	!	!	!
.	.	.	.	16qqc/	.	16qqa-/	.	.	.	16qqqA-/	.	.	.	.	.	.	.	.	.	.	.	.	.	.	.
4BB-/	.	2f\	.	2d/	.	2b-/	.	.	.	2B-\	-du	2.ryy	2.ryy	2.r	.	2.r	.	4BB-/	.	0.r	.	0.r	.	2.ryy	2.ryy
(8B-\L	.	.	.	.	.	.	.	.	.	.	.	.	.	.	.	.	.	4r	.	.	.	.	.	.	.
8A-X\	.	.	.	.	.	.	.	.	.	.	.	.	.	.	.	.	.	.	.	.	.	.	.	.	.
8G\	.	4r	.	4r	.	4r	.	.	.	4r	.	.	.	.	.	.	.	4r	.	.	.	.	.	.	.
8F\J)	.	.	.	.	.	.	.	.	.	.	.	.	.	.	.	.	.	.	.	.	.	.	.	.	.
!	!	!	!	!	!	!	!	!	!	!	!	!	!	!LO:LB:g=original	!	!	!	!	!	!	!	!	!	!	!
=87	=87	=87	=87	=87	=87	=87	=87	=87	=87	=87	=87	=87	=87	=87	=87	=87	=87	=87	=87	=87	=87	=87	=87	=87	=87
!	!	!	!	!	!	!	!	!	!	!LO:TX:a:t=10	!	!	!	!	!	!	!	!	!LO:DY:t=p&colon;	!	!	!	!	!	!
4E-\	.	4r	.	4r	.	2.b-\	.	2.B-\	Niech	0.r	.	2.ryy	2.ryy	4r	p	4r	.	2.B-\	p	.	.	.	.	2.ryy	2.ryy
!	!	!	!	!	!	!	!	!	!	!	!	!	!	!	!	!	!LO:DY:rj	!	!	!	!	!	!	!	!
4r	.	4g\	.	4b-/	.	.	.	.	.	.	.	.	.	4g\	.	4b-\	p	.	.	.	.	.	.	.	.
4r	.	4e-\	.	4g/	.	.	.	.	.	.	.	.	.	4e-\	.	4g\	.	.	.	.	.	.	.	.	.
=88	=88	=88	=88	=88	=88	=88	=88	=88	=88	=88	=88	=88	=88	=88	=88	=88	=88	=88	=88	=88	=88	=88	=88	=88	=88
4BB-/	.	4r	.	4r	.	2.b-\	.	2.B-\	mię	.	.	2.ryy	2.ryy	4r	.	4r	.	2.B-\	.	.	.	.	.	2.ryy	2.ryy
4r	.	4f\	.	4a-X/	.	.	.	.	.	.	.	.	.	4f\	.	4a-\	.	.	.	.	.	.	.	.	.
4r	.	4d\	.	4f/	.	.	.	.	.	.	.	.	.	4B-/	.	4f\	.	.	.	.	.	.	.	.	.
!LO:LB:g=original	!	!	!	!LO:LB:g=original	!	!	!	!	!	!	!	!	!	!	!	!	!	!	!	!	!	!	!	!	!
=89	=89	=89	=89	=89	=89	=89	=89	=89	=89	=89	=89	=89	=89	=89	=89	=89	=89	=89	=89	=89	=89	=89	=89	=89	=89
4E-\	.	4e-\	.	4g/	.	4b-\	.	4B-\	Krzyz	.	.	2.ryy	2.ryy	4E-/	.	4B-/	.	(4B-\	.	.	.	.	.	2.ryy	2.ryy
4r	.	4r	.	4r	.	4cc\	.	4c\	Pań-	.	.	.	.	4r	.	4r	.	4c\	.	.	.	.	.	.	.
4A-\	.	4b-\	.	4G/	.	4e-/	.	4E-\	-ski	.	.	.	.	4r	.	4r	.	4E-\)	.	.	.	.	.	.	.
=90	=90	=90	=90	=90	=90	=90	=90	=90	=90	=90	=90	=90	=90	=90	=90	=90	=90	=90	=90	=90	=90	=90	=90	=90	=90
!	!	!	!	!	!	!	!	!	!	!	!	!	!	!LO:TX:a:t=5	!	!LO:TX:a:t=5	!	!	!	!	!	!	!	!	!
4B-\	.	2b-\	.	4G/	.	(4e-/	.	4E-\	z tey	.	.	2.ryy	2.ryy	0.r	.	0.r	.	(4E-\	.	1.r	.	1.r	.	2.ryy	2.ryy
4A-\	.	.	.	4A-X/	.	4d/	.	4D\	to-	.	.	.	.	.	.	.	.	4D\	.	.	.	.	.	.	.
!	!	!LO:TX:t=P:problem:4\left	!	!	!	!	!	!	!	!	!	!	!	!	!	!	!	!	!	!	!	!	!	!	!
4G\	.	4B-/	.	4G/	.	4e-/)	.	4E-\	-ni	.	.	.	.	.	.	.	.	4E-\)	.	.	.	.	.	.	.
!	!	!	!	!	!	!	!	!LO:LB:g=original	!	!	!	!	!	!	!	!	!	!	!	!	!	!	!	!	!
=91	=91	=91	=91	=91	=91	=91	=91	=91	=91	=91	=91	=91	=91	=91	=91	=91	=91	=91	=91	=91	=91	=91	=91	=91	=91
4F\	.	2B-/	.	2g/	.	2cc\	.	2B-\	I	0.r	.	2.ryy	2.ryy	.	.	.	.	(2B-\	.	.	.	.	.	2.ryy	2.ryy
4D\	.	.	.	.	.	.	.	.	.	.	.	.	.	.	.	.	.	.	.	.	.	.	.	.	.
!	!	!LO:TX:t=P:problem:4\left	!	!	!	!	!	!	!	!	!	!	!	!	!	!	!	!	!	!	!	!	!	!	!
4BB-\	.	4B-/	.	4f/	.	4a-X/	.	4A-X\	.	.	.	.	.	.	.	.	.	4A-X\)	.	.	.	.	.	.	.
=92	=92	=92	=92	=92	=92	=92	=92	=92	=92	=92	=92	=92	=92	=92	=92	=92	=92	=92	=92	=92	=92	=92	=92	=92	=92
!	!	!LO:TX:t=P:problem:4\left	!	!	!	!	!	!	!	!	!	!	!	!	!	!	!	!	!	!	!	!	!	!	!
4E-\	.	4B-/	.	4f/	.	4a-/	.	4A-\	.	.	.	2.ryy	2.ryy	.	.	.	.	(4A-\	.	2.r	.	2.r	.	2.ryy	2.ryy
!	!	!LO:TX:t=P:problem:4\left	!	!	!	!	!	!	!	!	!	!	!	!	!	!	!	!	!	!	!	!	!	!	!
4EE-/	.	4B-/	.	4e-/	.	4g/	.	4G\	Smierć	.	.	.	.	.	.	.	.	4G\)	.	.	.	.	.	.	.
4r	.	4r	.	4r	.	4r	.	4r	.	.	.	.	.	.	.	.	.	4r	.	.	.	.	.	.	.
=93	=93	=93	=93	=93	=93	=93	=93	=93	=93	=93	=93	=93	=93	=93	=93	=93	=93	=93	=93	=93	=93	=93	=93	=93	=93
4A-\	.	4r	.	4f/	.	4cc\	.	4c\	Niech	.	.	2.ryy	2.ryy	.	.	.	.	4A-\	.	4r	.	4r	.	2.ryy	2.ryy
!	!	!LO:TX:t=P:problem:4\left	!	!	!	!	!	!	!	!	!	!	!	!	!	!	!	!	!	!	!LO:DY:t=p&colon;	!	!LO:DY:t=p&colon;	!	!
4r	.	4G/	.	4r	.	4en/	.	4En\	.	.	.	.	.	.	.	.	.	4r	.	4g/	p	4een\	p	.	.
!	!	!LO:TX:t=P:problem:4\left	!	!	!	!	!	!	!	!	!	!	!	!	!	!	!	!	!	!	!	!	!	!	!
4r	.	4A-/	.	4r	.	4f/	.	4F\	mie	.	.	.	.	.	.	.	.	4r	.	4a-/	.	4ff\	.	.	.
=94	=94	=94	=94	=94	=94	=94	=94	=94	=94	=94	=94	=94	=94	=94	=94	=94	=94	=94	=94	=94	=94	=94	=94	=94	=94
4G\	.	4r	.	4e-/	.	4b-\	.	4B-\	Krzyz	.	.	2.ryy	2.ryy	2.r	.	2.r	.	4G\	.	4r	.	4r	.	2.ryy	2.ryy
!	!	!LO:TX:t=P:problem:4\left	!	!	!	!	!	!	!	!	!	!	!	!	!	!	!	!	!	!	!	!	!	!	!
4r	.	4F/	.	4r	.	4d/	.	4D\	.	.	.	.	.	.	.	.	.	4r	.	4f/	.	4dd\	.	.	.
!	!	!LO:TX:t=P:problem:4\left	!	!	!	!	!	!	!	!	!	!	!	!	!	!	!	!	!	!	!	!	!	!	!
4r	.	4G/	.	4r	.	4e-X/	.	4E-X\	Pań-	.	.	.	.	.	.	.	.	4r	.	4g/	.	4ee-X\	.	.	.
=95	=95	=95	=95	=95	=95	=95	=95	=95	=95	=95	=95	=95	=95	=95	=95	=95	=95	=95	=95	=95	=95	=95	=95	=95	=95
!	!	!	!	!	!	!	!	!	!	!	!	!	!	!	!	!	!	!	!LO:DY:t=p&colon;	!	!	!	!	!	!
4r	.	4r	.	4r	.	4B-/	.	4BB-/	-ski	1.r	.	2.ryy	2.ryy	4r	p	4r	.	4BB-/	p	4r	.	4r	.	2.ryy	2.ryy
!	!	!LO:TX:t=P:problem:4\left	!	!	!	!	!	!	!	!	!	!	!	!	!	!	!	!	!	!	!	!	!	!	!
4D\	.	4B-/	.	4f/	.	4a-/	.	4A-\	z tey	.	.	.	.	4f\	.	4a-\	p	4D/	.	4a-/	.	4ff\	.	.	.
!	!	!LO:TX:t=P:problem:4\left	!	!	!	!	!	!	!	!	!	!	!	!	!	!	!	!	!	!	!	!	!	!	!
4E-\	.	4B-/	.	4e-/	.	4g/	.	4G\	.	.	.	.	.	4e-\	.	4g\	.	4E-/	.	4g/	.	4ee-\	.	.	.
!	!	!	!	!	!	!LO:LB:g=original	!	!	!	!	!	!	!	!	!	!	!	!LO:LB:g=original	!	!	!	!	!	!	!
=96	=96	=96	=96	=96	=96	=96	=96	=96	=96	=96	=96	=96	=96	=96	=96	=96	=96	=96	=96	=96	=96	=96	=96	=96	=96
4B-\	.	4B-/	.	4e-/	.	4g/	.	4G\	to-	.	.	2.ryy	2.ryy	4e-\	.	4g\	.	4BB-/	.	4g/	.	4ee-\	.	2.ryy	2.ryy
!	!	!LO:TX:t=P:problem:4\left	!	!	!	!	!	!	!	!	!	!	!	!	!	!	!	!	!	!	!	!	!	!	!
4BB-/	.	4B-/	.	4d/	.	4f/	.	4F\	-ni	.	.	.	.	4B-/	.	4f\	.	4B-\	.	4f/	.	4dd\	.	.	.
4r	.	4r	.	4r	.	4r	.	4r	.	.	.	.	.	4r	.	4r	.	4r	.	4r	.	4r	.	.	.
!	!	!LO:LB:g=original	!	!	!	!	!	!	!	!	!	!	!	!	!	!	!	!	!	!	!	!	!	!	!
=97	=97	=97	=97	=97	=97	=97	=97	=97	=97	=97	=97	=97	=97	=97	=97	=97	=97	=97	=97	=97	=97	=97	=97	=97	=97
!	!	!LO:TX:i:t=Dolce	!	!	!	!LO:TX:a:t=dolce	!	!	!	!	!	!	!	!LO:TX:a:t=6	!	!LO:TX:a:t=6	!	!	!	!LO:TX:a:t=20.	!	!LO:TX:a:t=20.	!	!	!
2BB-/	.	2F/	.	2d/	.	2f/	.	2F\	I	2d\	I	2.ryy	2.ryy	0.r	.	0.r	.	2BB-/	.	0.r	.	0.r	.	2.ryy	2.ryy
!	!	!LO:TX:t=P:problem:4\left	!	!	!	!	!	!	!	!	!	!	!	!	!	!	!	!	!	!	!	!	!	!	!
4r	.	4G/	.	4e-/	.	4g/	.	4G\	smierc	4e-\	smierc	.	.	.	.	.	.	4r	.	.	.	.	.	.	.
=98	=98	=98	=98	=98	=98	=98	=98	=98	=98	=98	=98	=98	=98	=98	=98	=98	=98	=98	=98	=98	=98	=98	=98	=98	=98
!LO:TX:a:t=2	!	!LO:TX:t=P:problem:4\left	!	!	!	!	!	!	!	!	!	!	!	!	!	!	!	!LO:TX:a:t=2	!	!	!	!	!	!	!
1.r	.	4B-/	.	4g/	.	(4b-/	.	4B-\	Chry-	4g\	Chry-	2.ryy	2.ryy	.	.	.	.	1.r	.	.	.	.	.	2.ryy	2.ryy
!	!	!LO:TX:t=P:problem:4\left	!	!	!	!	!	!	!	!	!	!	!	!	!	!	!	!	!	!	!	!	!	!	!
.	.	4A-/	.	4f/	.	4a-/	.	4A-\	.	4f\	.	.	.	.	.	.	.	.	.	.	.	.	.	.	.
!	!	!LO:TX:t=P:problem:4\left	!	!	!	!	!	!	!	!	!	!	!	!	!	!	!	!	!	!	!	!	!	!	!
.	.	4G/	.	4e-/	.	4g/)	.	4G\	.	4e-\	.	.	.	.	.	.	.	.	.	.	.	.	.	.	.
=99	=99	=99	=99	=99	=99	=99	=99	=99	=99	=99	=99	=99	=99	=99	=99	=99	=99	=99	=99	=99	=99	=99	=99	=99	=99
!	!	!LO:TX:t=P:problem:4\left	!	!	!	!	!	!	!	!	!	!	!	!	!	!	!	!	!	!	!	!	!	!	!
.	.	4G/	.	4B-/	.	4g/	.	4G\	.	4e-\	.	2.ryy	2.ryy	.	.	.	.	.	.	.	.	.	.	2.ryy	2.ryy
.	.	2B-/	.	4G/	.	(4f/	.	4F\	.	4d\	.	.	.	.	.	.	.	.	.	.	.	.	.	.	.
.	.	.	.	4G/	.	4e-/)	.	4G\	.	4e-\	.	.	.	.	.	.	.	.	.	.	.	.	.	.	.
!	!	!	!	!	!	!	!	!LO:LB:g=original	!	!	!	!	!	!	!	!	!	!	!	!	!	!	!	!	!
=100	=100	=100	=100	=100	=100	=100	=100	=100	=100	=100	=100	=100	=100	=100	=100	=100	=100	=100	=100	=100	=100	=100	=100	=100	=100
.	.	.	.	.	.	16qqe-/	.	.	.	.	.	.	.	.	.	.	.	.	.	.	.	.	.	.	.
4B-\	.	2B-/	.	2A-/	.	2d/	.	2A-\	.	2f\	.	2.ryy	2.ryy	.	.	.	.	4B-\	.	.	.	.	.	2.ryy	2.ryy
4A-\	.	.	.	.	.	.	.	.	.	.	.	.	.	.	.	.	.	4A-\	.	.	.	.	.	.	.
!	!	!LO:TX:t=P:problem:4\left	!	!	!	!	!	!	!	!	!	!	!	!	!	!	!	!	!	!	!	!	!	!	!
4G\	.	4B-/	.	4G/	.	4e-/	.	4G\	-stu-	4e-\	-stu-	.	.	.	.	.	.	4G\	.	.	.	.	.	.	.
=101	=101	=101	=101	=101	=101	=101	=101	=101	=101	=101	=101	=101	=101	=101	=101	=101	=101	=101	=101	=101	=101	=101	=101	=101	=101
4F\	.	2B-/	.	2f/	.	2a-/	.	2F\	-so-	2a-X\	-so-	2.ryy	2.ryy	1.r	.	1.r	.	4F\	.	0.r	.	0.r	.	2.ryy	2.ryy
4D\	.	.	.	.	.	.	.	.	.	.	.	.	.	.	.	.	.	4D\	.	.	.	.	.	.	.
!	!	!LO:TX:t=P:problem:4\left	!	!	!	!	!	!	!	!	!	!	!	!	!	!	!	!	!	!	!	!	!	!	!
4E-\	.	4B-/	.	4e-/	.	4g/	.	4E-\	-wa	4g\	-wa	.	.	.	.	.	.	4E-\	.	.	.	.	.	.	.
!	!	!	!	!LO:LB:g=original	!	!	!	!	!	!	!	!	!	!	!	!	!	!	!	!	!	!	!	!	!
=102	=102	=102	=102	=102	=102	=102	=102	=102	=102	=102	=102	=102	=102	=102	=102	=102	=102	=102	=102	=102	=102	=102	=102	=102	=102
!	!	!LO:TX:t=P:problem:4\left	!	!	!	!	!	!	!	!	!	!	!	!	!	!	!	!	!	!	!	!	!	!	!
4B-\	.	4B-/	.	4e-/	.	4g/	.	4E-\	bro-	4g\	bro-	2.ryy	2.ryy	.	.	.	.	4B-\	.	.	.	.	.	2.ryy	2.ryy
!	!	!LO:TX:t=P:problem:4\left	!	!	!	!	!	!	!	!	!	!	!	!	!	!	!	!	!	!	!	!	!	!	!
4BB-/	.	4B-/	.	4d/	.	4f/	.	4D\	-ni	4f\	-ni	.	.	.	.	.	.	4BB-/	.	.	.	.	.	.	.
4r	.	4r	.	4r	.	4r	.	4r	.	4r	.	.	.	.	.	.	.	4r	.	.	.	.	.	.	.
!LO:LB:g=original	!	!	!	!	!	!	!	!	!	!	!	!	!	!	!	!	!	!	!	!	!	!	!	!	!
=103	=103	=103	=103	=103	=103	=103	=103	=103	=103	=103	=103	=103	=103	=103	=103	=103	=103	=103	=103	=103	=103	=103	=103	=103	=103
!	!	!	!	!	!	!	!	!	!	!	!	!	!	!LO:TX:a:i:t=Solo	!LO:DY:t=pia	!LO:TX:a:t=Solo	!	!	!	!	!	!	!	!	!
2BB-/	.	2F/	.	2d/	.	2f/	.	2F\	I	2d\	I	2.ryy	2.ryy	2B-/	p	2f\	p	2BB-/	.	.	.	.	.	2.ryy	2.ryy
!	!	!LO:TX:t=P:problem:4\left	!	!	!	!	!	!	!	!	!	!	!	!	!	!	!	!	!	!	!	!	!	!	!
4r	.	4G/	.	4e-/	.	4g/	.	4G\	Smierć	4e-\	smierć	.	.	4e-\	.	4g\	.	4r	.	.	.	.	.	.	.
=104	=104	=104	=104	=104	=104	=104	=104	=104	=104	=104	=104	=104	=104	=104	=104	=104	=104	=104	=104	=104	=104	=104	=104	=104	=104
!LO:TX:a:t=2	!	!LO:TX:t=P:problem:4\left	!	!	!	!	!	!	!	!	!	!	!	!	!	!	!	!LO:TX:a:t=2.	!	!	!	!	!	!	!
1.r	.	4B-/	.	4g/	.	(4b-/	.	4B-\	Chry-	4g\	Chry-	2.ryy	2.ryy	4g\	.	4b-\	.	1.r	.	.	.	.	.	2.ryy	2.ryy
!	!	!LO:TX:t=P:problem:4\left	!	!	!	!	!	!	!	!	!	!	!	!	!	!	!	!	!	!	!	!	!	!	!
.	.	4A-/	.	4f/	.	4a-/	.	4A-\	.	4f\	.	.	.	4f\	.	4a-\	.	.	.	.	.	.	.	.	.
!	!	!LO:TX:t=P:problem:4\left	!	!	!	!	!	!	!	!	!	!	!	!	!	!	!	!	!	!	!	!	!	!	!
.	.	4G/	.	4e-/	.	4g/)	.	4G\	.	4e-\	.	.	.	4e-\	.	4g\	.	.	.	.	.	.	.	.	.
=105	=105	=105	=105	=105	=105	=105	=105	=105	=105	=105	=105	=105	=105	=105	=105	=105	=105	=105	=105	=105	=105	=105	=105	=105	=105
!	!	!LO:TX:t=P:problem:4\left	!	!	!	!	!	!	!	!	!	!	!	!	!	!	!	!	!	!	!	!	!	!	!
.	.	4G/	.	4B-/	.	(4b-/ 4g/	.	4G\	.	4e-\	.	2.ryy	2.ryy	4e-\	.	4g\	.	.	.	0.r	.	0.r	.	2.ryy	2.ryy
.	.	2B-/	.	4A-/	.	4f/	.	4F\	.	4d\	.	.	.	4B-/	.	4f\	.	.	.	.	.	.	.	.	.
.	.	.	.	4G/	.	4e-/)	.	4G\	.	4e-\	.	.	.	4G/	.	4e-\	.	.	.	.	.	.	.	.	.
!	!	!	!	!	!	!	!	!	!	!LO:LB:g=original	!	!	!	!	!	!	!	!	!	!	!	!	!	!	!
=106	=106	=106	=106	=106	=106	=106	=106	=106	=106	=106	=106	=106	=106	=106	=106	=106	=106	=106	=106	=106	=106	=106	=106	=106	=106
!	!	!LO:TX:t=P:problem:8\left	!	!	!	!	!	!	!	!	!	!	!	!	!	!	!	!	!	!	!	!	!	!	!
4B-\	.	8B-/	.	2A-/	.	2d/	.	2A-\	.	2f\	.	2.ryy	2.ryy	2B-/	.	2f\	.	4B-\	.	.	.	.	.	2.ryy	2.ryy
!	!	!LO:TX:t=P:problem:4\left	!	!	!	!	!	!	!	!	!	!	!	!	!	!	!	!	!	!	!	!	!	!	!
.	.	4B-/	.	.	.	.	.	.	.	.	.	.	.	.	.	.	.	.	.	.	.	.	.	.	.
4A-\	.	.	.	.	.	.	.	.	.	.	.	.	.	.	.	.	.	4A-\	.	.	.	.	.	.	.
!	!	!LO:TX:t=P:problem:4\left	!	!	!	!	!	!	!	!	!	!	!	!	!	!	!	!	!	!	!	!	!	!	!
.	.	4B-/	.	.	.	.	.	.	.	.	.	.	.	.	.	.	.	.	.	.	.	.	.	.	.
4G\	.	.	.	4G/	.	4e-/	.	4G\	-stu-	4e-\	-stu-	.	.	4G/	.	4e-\	.	4G\	.	.	.	.	.	.	.
!	!	!LO:TX:t=P:problem:8\left	!	!	!	!	!	!	!	!	!	!	!	!	!	!	!	!	!	!	!	!	!	!	!
.	.	8B-/	.	.	.	.	.	.	.	.	.	.	.	.	.	.	.	.	.	.	.	.	.	.	.
=107	=107	=107	=107	=107	=107	=107	=107	=107	=107	=107	=107	=107	=107	=107	=107	=107	=107	=107	=107	=107	=107	=107	=107	=107	=107
4F\	.	2B-/	.	2f/	.	2a-/	.	2F\	-so-	2a-\	-So-	2.ryy	2.ryy	2B-/	.	2f\	.	4F\	.	.	.	.	.	2.ryy	2.ryy
4D\	.	.	.	.	.	.	.	.	.	.	.	.	.	.	.	.	.	4D\	.	.	.	.	.	.	.
!	!	!LO:TX:t=P:problem:4\left	!	!	!	!	!	!	!	!	!	!	!	!	!	!	!	!	!	!	!	!	!	!	!
4E-\	.	4B-/	.	4e-/	.	4g/	.	4E-\	-wa	4g\	-wa	.	.	4e-\	.	4g\	.	4E-\	.	.	.	.	.	.	.
=108	=108	=108	=108	=108	=108	=108	=108	=108	=108	=108	=108	=108	=108	=108	=108	=108	=108	=108	=108	=108	=108	=108	=108	=108	=108
!	!	!LO:TX:t=P:problem:4\left	!	!	!	!	!	!	!	!	!	!	!	!	!	!	!	!	!	!	!	!	!	!	!
4BB-/	.	4B-/	.	4e-/	.	4g/	.	4E-\	bro-	4g\	bro-	2.ryy	2.ryy	4e-\	.	4g\	.	4B-\	.	.	.	.	.	2.ryy	2.ryy
!	!	!LO:TX:t=P:problem:4\left	!	!	!	!	!	!	!	!	!	!	!	!	!	!	!	!	!	!	!	!	!	!	!
4B-\	.	4B-/	.	4d/	.	4f/	.	4D\	-ni	4f\	-ni	.	.	4B-/	.	4f\	.	4BB-/	.	.	.	.	.	.	.
4r	.	4r	.	4r	.	4r	.	4r	.	4r	.	.	.	4r	.	4r	.	4r	.	.	.	.	.	.	.
!	!	!	!	!	!	!	!	!LO:LB:g=original	!	!	!	!	!	!	!	!	!	!	!	!	!	!	!	!	!
=109	=109	=109	=109	=109	=109	=109	=109	=109	=109	=109	=109	=109	=109	=109	=109	=109	=109	=109	=109	=109	=109	=109	=109	=109	=109
!	!	!	!	!LO:TX:a:t=1.	!	!	!	!LO:TX:a:t=1.	!	!	!	!	!	!	!	!	!	!	!	!	!	!	!	!	!
4E-\	.	4g\	.	2.r	.	4f/	.	2.r	.	4G/	Niech	2.ryy	2.ryy	4E-/	.	4e-\	.	4E-\	.	0.r	.	0.r	.	2.ryy	2.ryy
4r	.	4r	.	.	.	(8a-/L	.	.	.	8A-/L	.	.	.	4r	.	4r	.	4r	.	.	.	.	.	.	.
!	!	!	!	!	!	!	!	!	!	!LO:TX:t=P:problem:8\left	!	!	!	!	!	!	!	!	!	!	!	!	!	!	!
.	.	.	.	.	.	8g/	.	.	.	8G/J	.	.	.	.	.	.	.	.	.	.	.	.	.	.	.
!	!	!	!	!	!	!	!	!	!	!LO:TX:t=P:problem:8\left	!	!	!	!	!	!	!	!	!	!	!	!	!	!	!
4r	.	4r	.	.	.	8f/	.	.	.	8F/L	.	.	.	4r	.	4r	.	4r	.	.	.	.	.	.	.
!	!	!	!	!	!	!	!	!	!	!LO:TX:t=P:problem:8\left	!	!	!	!	!	!	!	!	!	!	!	!	!	!	!
.	.	.	.	.	.	8e-/J)	.	.	.	8E-/J	.	.	.	.	.	.	.	.	.	.	.	.	.	.	.
=110	=110	=110	=110	=110	=110	=110	=110	=110	=110	=110	=110	=110	=110	=110	=110	=110	=110	=110	=110	=110	=110	=110	=110	=110	=110
4E-\	.	4g\	.	4e-/	.	4g/	.	4E-\	Niech-	4B-\	.	2.ryy	2.ryy	4E-/	.	4e-\	.	4E-\	.	.	.	.	.	2.ryy	2.ryy
4r	.	4r	.	8a-/L	.	8cc\L	.	8A-\L	.	8c\L	.	.	.	4r	.	4r	.	4r	.	.	.	.	.	.	.
.	.	.	.	(8g/	.	(8b-\	.	8G\J	.	8B-\J	.	.	.	.	.	.	.	.	.	.	.	.	.	.	.
4r	.	4r	.	8f/)	.	8a-\	.	8F\L	.	8A-\L	.	.	.	4r	.	4r	.	4r	.	.	.	.	.	.	.
.	.	.	.	8e-/J	.	8g\J)	.	8E-\J	.	8G\J	.	.	.	.	.	.	.	.	.	.	.	.	.	.	.
=111	=111	=111	=111	=111	=111	=111	=111	=111	=111	=111	=111	=111	=111	=111	=111	=111	=111	=111	=111	=111	=111	=111	=111	=111	=111
!	!	!	!	!	!	!	!	!	!	!	!	!	!	!LO:TX:a:t=6	!	!LO:TX:a:t=6	!	!	!	!	!	!	!	!	!
4E-\	.	4e-\	.	2g/	.	2b-\	.	2G\	-strze-	2B-\	strze-	2.ryy	2.ryy	0.r	.	0.r	.	4E-\	.	.	.	.	.	2.ryy	2.ryy
4G\	.	4g\	.	.	.	.	.	.	.	.	.	.	.	.	.	.	.	4G\	.	.	.	.	.	.	.
4E-\	.	4e-\	.	4g/	.	4ee-\	.	4G\	-ze	4e-\	-ze	.	.	.	.	.	.	4E-\	.	.	.	.	.	.	.
!	!	!LO:LB:g=original	!	!	!	!	!	!	!	!	!	!	!	!	!	!	!	!LO:LB:g=original	!	!	!	!	!	!	!
=112	=112	=112	=112	=112	=112	=112	=112	=112	=112	=112	=112	=112	=112	=112	=112	=112	=112	=112	=112	=112	=112	=112	=112	=112	=112
4A-\	.	4cc\	.	8a-/L	.	8cc\L	.	8A-\	ła-	8c\	ła-	2.ryy	2.ryy	.	.	.	.	4A-\	.	.	.	.	.	2.ryy	2.ryy
.	.	.	.	(16g/L	.	(16b-\L	.	16G\LL	.	16B-\LL	.	.	.	.	.	.	.	.	.	.	.	.	.	.	.
.	.	.	.	16f/JJ)	.	16a-\JJ)	.	16F\JJ	.	16A-\JJ	.	.	.	.	.	.	.	.	.	.	.	.	.	.	.
4B-\	.	4b-\	.	4f/	.	4g/	.	4E-\	.	4G/	.	.	.	.	.	.	.	4B-\	.	.	.	.	.	.	.
4BB-/	.	4b-\	.	4e-/	.	4f/	.	4D\	-ska	4F/	-ska	.	.	.	.	.	.	4BB-/	.	.	.	.	.	.	.
=113	=113	=113	=113	=113	=113	=113	=113	=113	=113	=113	=113	=113	=113	=113	=113	=113	=113	=113	=113	=113	=113	=113	=113	=113	=113
4E-\	.	4b-\	.	8g/L	.	(8b-/L	.	8G\L	Je-	8B-\L	Je-	2.ryy	2.ryy	.	.	.	.	4E-\	.	0.r	.	0.r	.	2.ryy	2.ryy
.	.	.	.	8e-/	.	8g/)	.	8E-\	.	8G\	.	.	.	.	.	.	.	.	.	.	.	.	.	.	.
4r	.	4r	.	8g/	.	(8b-/	.	8G\	.	8B-\	.	.	.	.	.	.	.	4r	.	.	.	.	.	.	.
.	.	.	.	8e-/	.	8g/)	.	8E-\J	.	8G\J	.	.	.	.	.	.	.	.	.	.	.	.	.	.	.
4BB-/	.	4b-\	.	8f/	.	(8a-/	.	8F\L	.	8A-/L	.	.	.	.	.	.	.	4BB-/	.	.	.	.	.	.	.
.	.	.	.	8d/J	.	8f/J)	.	8D\J	.	8F/J	.	.	.	.	.	.	.	.	.	.	.	.	.	.	.
=114	=114	=114	=114	=114	=114	=114	=114	=114	=114	=114	=114	=114	=114	=114	=114	=114	=114	=114	=114	=114	=114	=114	=114	=114	=114
!	!	!	!	!	!	!LO:TX:t=P:problem:łuk wygięty w drugą stronę	!	!	!	!	!	!	!	!	!	!	!	!	!	!	!	!	!	!	!
4E-\	.	4b-\	.	8g/L	.	(8b-\L	.	8G\L	.	8B-\L	.	2.ryy	2.ryy	.	.	.	.	4E-\	.	.	.	.	.	2.ryy	2.ryy
.	.	.	.	8e-/	.	8g\)	.	8E-\	.	8G\	.	.	.	.	.	.	.	.	.	.	.	.	.	.	.
!	!	!	!	!	!	!LO:TX:t=P:problem:łuk wygięty w drugą stronę	!	!	!	!	!	!	!	!	!	!	!	!	!	!	!	!	!	!	!
4r	.	4r	.	8g/	.	(8b-\	.	8G\	.	8B-\	.	.	.	.	.	.	.	4r	.	.	.	.	.	.	.
.	.	.	.	8e-/J	.	8g\)	.	8E-\J	.	8G\J	.	.	.	.	.	.	.	.	.	.	.	.	.	.	.
!	!	!	!	!LO:LB:g=original	!	!LO:TX:t=P:problem:łuk wygięty w drugą stronę	!	!	!	!	!	!	!	!	!	!	!	!	!	!	!	!	!	!	!
4r	.	4r	.	(8g/L	.	(8ee-\	.	8c\L	.	8d\L	.	.	.	.	.	.	.	4r	.	.	.	.	.	.	.
.	.	.	.	8a-/J)	.	8cc\J)	.	8A-\J	.	8c\J	.	.	.	.	.	.	.	.	.	.	.	.	.	.	.
!	!	!	!	!	!	!	!	!	!	!LO:LB:g=original	!	!	!	!	!	!	!	!	!	!	!	!	!	!	!
=115	=115	=115	=115	=115	=115	=115	=115	=115	=115	=115	=115	=115	=115	=115	=115	=115	=115	=115	=115	=115	=115	=115	=115	=115	=115
4A-\	.	4cc\	.	8g/L	.	(8b-\L	.	8G\L	.	8B-\L	.	2.ryy	2.ryy	1.r	.	1.r	.	4A-\	.	.	.	.	.	2.ryy	2.ryy
.	.	.	.	8f/J	.	8a-\J)	.	8F\J	.	8A-\J	.	.	.	.	.	.	.	.	.	.	.	.	.	.	.
!	!	!	!	!	!	!	!	!	!	!LO:TX:b:t=g	!	!	!	!	!	!	!	!	!	!	!	!	!	!	!
4B-\	.	4b-\	.	4e-/	.	4g/	.	4E-\	.	4G/	.	.	.	.	.	.	.	4B-\	.	.	.	.	.	.	.
!	!	!	!	!	!	!	!	!	!	!LO:TX:b:t=f	!	!	!	!	!	!	!	!	!	!	!	!	!	!	!
4BB-/	.	4b-\	.	4A-/	.	4f/	.	4D\	.	4F/	.	.	.	.	.	.	.	4BB-/	.	.	.	.	.	.	.
!	!	!	!	!	!	!	!	!LO:LB:g=original	!	!	!	!	!	!	!	!	!	!	!	!	!	!	!	!	!
=116	=116	=116	=116	=116	=116	=116	=116	=116	=116	=116	=116	=116	=116	=116	=116	=116	=116	=116	=116	=116	=116	=116	=116	=116	=116
2E-\	.	2b-\	.	2A-/	.	2f/	.	2D\	.	2A-/	.	2.ryy	2.ryy	.	.	.	.	2E-\	.	.	.	.	.	2.ryy	2.ryy
4E-\	.	4b-\	.	4G/	.	4e-/	.	4E-\	-go	4G/	-go	.	.	.	.	.	.	4E-\	.	.	.	.	.	.	.
=117	=117	=117	=117	=117	=117	=117	=117	=117	=117	=117	=117	=117	=117	=117	=117	=117	=117	=117	=117	=117	=117	=117	=117	=117	=117
.	.	.	.	.	.	16qqan/LL	.	.	.	.	.	.	.	.	.	.	.	.	.	.	.	.	.	.	.
!	!	!	!	!	!	!LO:TX:t=P:problem:f = f:	!	!LO:TX:a:t=10.	!	!LO:TX:a:t=10	!	!	!	!	!	!	!	!	!	!	!	!	!	!	!
.	.	.	.	.	.	16qqcc/JJ	.	.	.	.	.	.	.	.	.	.	.	.	.	.	.	16qqaan/	.	.	.
!	!	!	!	!	!	!	!LO:DY:rj:t=f&colon;	!	!	!	!	!	!	!	!	!	!	!	!LO:DY:t=for&colon;	!	!LO:DY:t=for&colon;	!	!LO:DY:t=for&colon;	!	!
4BB-/	.	4r	.	4r	f	4b-\	f	0.r	.	0.r	.	2.ryy	2.ryy	4r	f	4r	f	4B-\	f	4b-/	f	4bb-\	f	2.ryy	2.ryy
!	!	!	!	!LO:N:vis=8L	!	!	!	!	!	!	!	!	!	!	!	!	!	!	!	!	!	!	!	!	!
4r	.	4f\	.	4a-/	.	4r	.	.	.	.	.	.	.	4f\	.	4a-\	.	4r	.	4r	.	4r	.	.	.
!	!	!LO:TX:t=P:problem:4\left	!	!LO:N:vis=8J	!	!	!	!	!	!	!	!	!	!	!	!	!	!	!	!	!	!	!	!	!
4r	.	4B-/	.	4f/	.	4r	.	.	.	.	.	.	.	4B-/	.	4f\	.	4r	.	4r	.	4r	.	.	.
!	!	!	!	!	!	!LO:LB:g=original	!	!	!	!	!	!	!	!LO:LB:g=original	!	!LO:LB:g=original	!	!	!	!	!	!LO:LB:g=original	!	!	!
=118	=118	=118	=118	=118	=118	=118	=118	=118	=118	=118	=118	=118	=118	=118	=118	=118	=118	=118	=118	=118	=118	=118	=118	=118	=118
.	.	.	.	.	.	16qqan/LL	.	.	.	.	.	.	.	.	.	.	.	.	.	.	.	.	.	.	.
!	!	!	!	!	!	!	!	!	!	!	!	!	!	!	!	!	!	!	!	!	!	!LO:SIC:v:t=przednutka:s=16qqaan/	!	!	!
.	.	.	.	.	.	16qqcc/JJ	.	.	.	.	.	.	.	.	.	.	.	.	.	.	.	16qqaa-/	.	.	.
4BB-/	.	4r	.	4r	.	4b-\	.	.	.	.	.	2.ryy	2.ryy	4r	.	4r	.	4B-\	.	4b-/	.	4bb-\	.	2.ryy	2.ryy
!	!	!	!	!LO:N:vis=8L	!	!	!	!	!	!	!	!	!	!	!	!	!	!	!	!	!	!	!	!	!
4r	.	4e-\	.	4g/	.	4r	.	.	.	.	.	.	.	4e-\	.	4g\	.	4r	.	4r	.	4r	.	.	.
!	!	!LO:TX:t=P:problem:4\left	!	!LO:N:vis=8J	!	!	!	!	!	!	!	!	!	!	!	!	!	!	!	!	!	!	!	!	!
4r	.	4G/	.	4e-/	.	4r	.	.	.	.	.	.	.	4G/	.	4e-\	.	4r	.	4r	.	4r	.	.	.
!LO:LB:g=original	!	!	!	!	!	!	!	!	!	!	!	!	!	!	!	!	!	!	!	!	!	!	!	!	!
=119	=119	=119	=119	=119	=119	=119	=119	=119	=119	=119	=119	=119	=119	=119	=119	=119	=119	=119	=119	=119	=119	=119	=119	=119	=119
!	!	!	!	!	!	!LO:SIC:t:dotyczy przednutki:v:s=16qqan/LL	!	!	!	!	!	!	!	!	!	!	!	!	!	!	!	!	!	!	!
.	.	.	.	.	.	16qqa-/LL	.	.	.	.	.	.	.	.	.	.	.	.	.	.	.	.	.	.	.
.	.	.	.	.	.	16qqcc/JJ	.	.	.	.	.	.	.	.	.	.	.	.	.	16qqan/	.	16qqaan/	.	.	.
4BB-/	.	4r	.	4r	.	4b-\	.	.	.	.	.	2.ryy	2.ryy	4B-/	.	4f\	.	4r	.	4b-/	.	4bb-\	.	2.ryy	2.ryy
4BB-/	.	4d\	.	4f/	.	4b-\	.	.	.	.	.	.	.	4B-/	.	4f\	.	4B-\	.	4b-/	.	4bb-\	.	.	.
4BB-/	.	4d\	.	4f/	.	4b-\	.	.	.	.	.	.	.	4B-/	.	4f\	.	4B-\	.	4b-/	.	4bb-\	.	.	.
=120	=120	=120	=120	=120	=120	=120	=120	=120	=120	=120	=120	=120	=120	=120	=120	=120	=120	=120	=120	=120	=120	=120	=120	=120	=120
2BB-/	.	(8d\L	.	8f/L	.	2b-T\	.	.	.	.	.	2.ryy	2.ryy	4B-/	.	8f\L	.	2B-\	.	2b-/	.	2bb-\	.	2.ryy	2.ryy
.	.	8c\	.	8e-/	.	.	.	.	.	.	.	.	.	.	.	8e-\	.	.	.	.	.	.	.	.	.
.	.	8d\	.	8f/	.	.	.	.	.	.	.	.	.	8B-/L	.	8f\	.	.	.	.	.	.	.	.	.
.	.	8e-\J)	.	8a-/J	.	.	.	.	.	.	.	.	.	8e-/J	.	8g\J	.	.	.	.	.	.	.	.	.
4r	.	4d\	.	4f/	.	4b-\	.	.	.	.	.	.	.	4B-/	.	4f\	.	4r	.	4r	.	4r	.	.	.
=121	=121	=121	=121	=121	=121	=121	=121	=121	=121	=121	=121	=121	=121	=121	=121	=121	=121	=121	=121	=121	=121	=121	=121	=121	=121
.	.	.	.	.	.	(16qqan/LL	.	.	.	.	.	.	.	.	.	.	.	.	.	.	.	.	.	.	.
.	.	.	.	.	.	16qqcc/JJ	.	.	.	.	.	.	.	.	.	.	.	.	.	16qqan/	.	16qqaan/	.	.	.
!	!	!	!	!	!LO:DY:a	!	!	!	!	!	!	!	!	!	!	!	!	!	!LO:DY:t=p.	!	!LO:DY:t=p&colon;	!	!LO:DY:t=p&colon;	!	!
4BB-/	.	4r	.	4r	p	4b-\)	.	0.r	.	0.r	.	2.ryy	2.ryy	4r	p	4r	p	4B-\	p	4b-/	p	4bb-\	p	2.ryy	2.ryy
!	!	!	!	!LO:N:vis=8L	!	!	!	!	!	!	!	!	!	!	!	!	!	!	!	!	!	!	!	!	!
4r	.	4f\	.	4a-/	.	4r	.	.	.	.	.	.	.	4f\	.	4a-\	.	4r	.	4r	.	4r	.	.	.
!	!	!LO:TX:t=P:problem:4\left	!	!LO:N:vis=8J	!	!	!	!	!	!	!	!	!	!	!	!	!	!	!	!	!	!	!	!	!
4r	.	4B-/	.	4f/	.	4r	.	.	.	.	.	.	.	4B-/	.	4f\	.	4r	.	4r	.	4r	.	.	.
!	!	!	!	!	!	!	!	!	!	!	!	!	!	!	!	!	!	!	!	!LO:LB:g=original	!	!	!	!	!
=122	=122	=122	=122	=122	=122	=122	=122	=122	=122	=122	=122	=122	=122	=122	=122	=122	=122	=122	=122	=122	=122	=122	=122	=122	=122
!	!	!	!	!	!	!LO:SIC:t:dotyczy przednutki:v:s=16qqan/LL	!	!	!	!	!	!	!	!	!	!	!	!	!	!	!	!	!	!	!
.	.	.	.	.	.	(16qqa-/LL	.	.	.	.	.	.	.	.	.	.	.	.	.	.	.	.	.	.	.
.	.	.	.	.	.	16qqcc/JJ)	.	.	.	.	.	.	.	.	.	.	.	.	.	.	.	.	.	.	.
!	!	!	!	!	!	!	!LO:DY:rj	!	!	!	!	!	!	!	!	!	!	!	!	!	!	!	!	!	!
4BB-/	.	4r	.	4r	.	4b-\	p	.	.	.	.	2.ryy	2.ryy	4r	.	4r	.	4B-\	.	4b-/	.	4bb-\	.	2.ryy	2.ryy
4r	.	4e-\	.	4g/	.	4r	.	.	.	.	.	.	.	4e-\	.	4g\	.	4r	.	4r	.	4r	.	.	.
4E-\	.	4b-\	.	4g/	.	4ee-\	.	.	.	.	.	.	.	4G/	.	4e-\	.	4E-\	.	4r	.	4r	.	.	.
=123	=123	=123	=123	=123	=123	=123	=123	=123	=123	=123	=123	=123	=123	=123	=123	=123	=123	=123	=123	=123	=123	=123	=123	=123	=123
4A-\	.	4cc\	.	8a-/L	.	8cc'\L	.	.	.	.	.	2.ryy	2.ryy	4r	.	4r	.	4A-\	.	4r	.	4r	.	2.ryy	2.ryy
.	.	.	.	16g/L	.	(16b-\L	.	.	.	.	.	.	.	.	.	.	.	.	.	.	.	.	.	.	.
.	.	.	.	16f/JJ	.	16a-\JJ)	.	.	.	.	.	.	.	.	.	.	.	.	.	.	.	.	.	.	.
4B-\	.	4b-\	.	4e-/	.	4g/	.	.	.	.	.	.	.	4e-\	.	4g\	.	4B-\	.	4g/	.	4ee-\	.	.	.
4BB-/	.	4b-\	.	4d/	.	4f/	.	.	.	.	.	.	.	4B-/	.	4f\	.	4BB-/	.	4f/	.	4dd\	.	.	.
!	!	!LO:LB:g=original	!	!	!	!	!	!	!	!	!	!	!	!	!	!	!	!LO:LB:g=original	!	!	!	!	!	!	!
=124	=124	=124	=124	=124	=124	=124	=124	=124	=124	=124	=124	=124	=124	=124	=124	=124	=124	=124	=124	=124	=124	=124	=124	=124	=124
!	!	!	!	!	!	!	!	!	!	!	!	!	!	!LO:TX:a:t=1	!	!LO:TX:a:t=1	!	!	!	!LO:TX:a:t=2	!	!LO:TX:a:t=2	!	!	!
4r	.	8.cc\L	.	8.cc\L	.	8.cc\L	.	.	.	.	.	2.ryy	2.ryy	2.r	.	2.r	.	8.c\L	.	1.r	.	1.r	.	2.ryy	2.ryy
.	.	16b-\Jk	.	16b-\Jk	.	16b-\Jk	.	.	.	.	.	.	.	.	.	.	.	16B-\Jk	.	.	.	.	.	.	.
4r	.	(16a-\LL	.	(16a-/LL	.	(16a-/LL	.	.	.	.	.	.	.	.	.	.	.	16A-\LL	.	.	.	.	.	.	.
.	.	16g\	.	16g/	.	16g/	.	.	.	.	.	.	.	.	.	.	.	16G\	.	.	.	.	.	.	.
.	.	16f\	.	16f/	.	16f/	.	.	.	.	.	.	.	.	.	.	.	16F\	.	.	.	.	.	.	.
.	.	16e-\	.	16e-/JJ)	.	16e-/JJ)	.	.	.	.	.	.	.	.	.	.	.	16E-\JJ	.	.	.	.	.	.	.
4BB-/	.	16d\	.	(16d/LL	.	(16d/LL	.	.	.	.	.	.	.	.	.	.	.	16D/LL	.	.	.	.	.	.	.
.	.	16c\	.	16c/	.	16c/	.	.	.	.	.	.	.	.	.	.	.	16C/	.	.	.	.	.	.	.
.	.	16B-\	.	16B-/)	.	16B-/)	.	.	.	.	.	.	.	.	.	.	.	16BB-/	.	.	.	.	.	.	.
.	.	16A-\JJ)	.	16A-/JJ	.	16A-/JJ	.	.	.	.	.	.	.	.	.	.	.	16AA-/JJ	.	.	.	.	.	.	.
!	!	!	!	!LO:LB:g=original	!	!	!	!	!	!	!	!	!	!	!	!	!	!	!	!	!	!	!	!	!
=125	=125	=125	=125	=125	=125	=125	=125	=125	=125	=125	=125	=125	=125	=125	=125	=125	=125	=125	=125	=125	=125	=125	=125	=125	=125
2E-\	.	8G\L	.	8G/L	.	8G/L	.	1.r	.	1.r	.	2.ryy	2.ryy	4E-/	.	4G/	.	8GG\L	.	.	.	.	.	2.ryy	2.ryy
.	.	8B-\	.	8B-/	.	8B-/	.	.	.	.	.	.	.	.	.	.	.	8BB-\	.	.	.	.	.	.	.
.	.	8e-\	.	(8e-/	.	8e-/	.	.	.	.	.	.	.	4r	.	4r	.	8E-\	.	.	.	.	.	.	.
.	.	8g\	.	8g/	.	8g/	.	.	.	.	.	.	.	.	.	.	.	8G\	.	.	.	.	.	.	.
4G\	.	8b-\	.	8b-/	.	8b-/	.	.	.	.	.	.	.	4r	.	4r	.	8B-\	.	.	.	.	.	.	.
.	.	8g\J	.	8ee-/J)	.	8ee-/J	.	.	.	.	.	.	.	.	.	.	.	8G\J	.	.	.	.	.	.	.
=126	=126	=126	=126	=126	=126	=126	=126	=126	=126	=126	=126	=126	=126	=126	=126	=126	=126	=126	=126	=126	=126	=126	=126	=126	=126
4A-\	.	4cc\	.	8a-/L	.	8cc\L	.	.	.	.	.	2.ryy	2.ryy	4r	.	4r	.	4A-\	.	4r	.	4r	.	2.ryy	2.ryy
.	.	.	.	16g/L	.	16b-\L	.	.	.	.	.	.	.	.	.	.	.	.	.	.	.	.	.	.	.
.	.	.	.	16f/JJ	.	16a-\JJ	.	.	.	.	.	.	.	.	.	.	.	.	.	.	.	.	.	.	.
4B-\	.	4b-\	.	4e-/	.	4g/	.	.	.	.	.	.	.	4e-\	.	4g\	.	4B-\	.	4ee-\	.	4gg\	.	.	.
!	!	!LO:TX:t=P:problem:4\left	!	!	!	!LO:TX:b:i:t=V&colon;S&colon;	!	!	!	!	!	!	!	!	!	!	!	!	!	!	!	!	!	!	!
4BB-/	.	4B-/	.	4A-/	.	4f/	.	.	.	.	.	.	.	4B-/	.	4f\	.	4BB-/	.	4a-/	.	4ff\	.	.	.
==	==	==	==	==	==	==	==	==	==	==	==	==	==	==	==	==	==	==	==	==	==	==	==	==	==
*-	*-	*-	*-	*-	*-	*-	*-	*-	*-	*-	*-	*-	*-	*-	*-	*-	*-	*-	*-	*-	*-	*-	*-	*-	*-
!!!system-decoration: [(g1)][(g2)][(g3)][(g4)]s15
!!!RDF**kern: | = vertical stroke
!!!ENC: Marcin Jachim
!!!END: 2020-11-10
!!!EED: Andrzej Borzym
!!!EEV: 2022-04-25
